!!!!SEGMENT: pl-sa--177-a-v-7--001-002_luna-georgius--missa-ex-d-kyrie.krn
!!!cenid: 17xx:466
!!!COM: Luna, Georgius
!!!COM-rismID: pe41010079
!!!CDT:
!!!CNT:
!!!OPR: Missa ex D
!!!OTL: Kyrie
!!!OMV: 002
!!!PDT:
!!!AGN: Sacred; Mass
!!!YEC: Copyright 2022 Narodowy Instytut Fryderyka Chopina (https://polishscores.org)
!!!YEM: License CC-BY-4.0 (https://creativecommons.org/licenses/by/4.0)
!!!SMS-siglum: PL-SA
!!!SMS-shelfmark: 177/A V 7
!!!SMS-shelfwork: 001-002 M
!!!SMS-variant:
!!!SMS-altvar:
!!!NIFC-rismSourceID: 1001035883
!!!NIFC-rismChildID: 1001035883
!!!NIFC-islandoraID: none
!!!URL-pdf-islandora:
!!!URL-scan: https://bc.bdsandomierz.pl/dlibra/publication/1512/edition/1480/content @EN{Scan in the Sandomierz Diocese Digital Library} @PL{Skany w portalu Cyfrowa Biblioteka Diecezjalna w Sandomierzu}
!!!IIIF:
!!!ONB-nifc: UWAGA; części Mszy: Sinfonia, Kyrie, Gloria, Patrem, Sanctus, Benedictus, Agnus, Dona. UWAGA: brak partii cornu primo, cornu secundo
!!!AIN: 2 clrno 2 oboe 1 organ 1 soprn 1 tenor 2 violn
!!!key: D
!!!filter-modern: sic -sq | shed -e "s/(LO:DY.*):t=(.*$)/$1:T=$2/L; s/LO:DY(.*)(:a:)(.*)/LO:dy:$1$2$3/L; s/LO:DY(.*)(:b:)(.*)/LO:dy:$1$2$3/L; s/LO:DY(.*)(:[ab])$/LO:dy:$1$2/L; s/LO:DY(.*)(:rj:)(.*)/LO:dy:$1$2$3/L" | shed -e "s/yy//" | shed -ke "s/\(y(?!y)/(/" | shed -ke "s/\[y(?!y)/[/g" | -shed -e "s/TX(.*):t=P:/tx$1:t=P:/LG" | shed -k -e "s/[<>]//g" | shed -k -e "s/LO:N:vis/LO:n:vis:/L" | shed -e "s/:rj/:RJ/L" | shed -e "s/^(\d+[\/\\]right)/$1yy/I;s/^(\d+[\/\\]left)/$1yy/I" | shed -e "s/LO:DY:(a|b|rj)/LO:dy:$1/L" | shed -e "s/-//B" | modori -m | tie -s | autostem -r | humtr -p
**kern	**dynam	**kern	**dynam	**kern	**dynam	**kern	**text	**mod-text	**kern	**text	**mod-text	**kern	**dynam	**kern	**kern	**kern
*part9	*	*part8	*	*part7	*	*part6	*	*	*part5	*	*	*part4	*	*part3	*part2	*part1
*staff9	*	*staff8	*	*staff7	*	*staff6	*	*	*staff5	*	*	*staff4	*	*staff3	*staff2	*staff1
*ICklav	*	*ICstr	*	*ICstr	*	*ICvox	*	*	*ICvox	*	*	*ICbras	*	*ICbras	*ICww	*ICww
*Iorgan	*	*Ivioln	*	*Ivioln	*	*Itenor	*	*	*Isoprn	*	*	*Iclrno	*	*Iclrno	*Ioboe	*Ioboe
*I"Fundamento:	*	*I"Violino Secundo	*	*I"Violino Primo	*	*I"Tenor	*	*	*I"Canto	*	*	*I"Clarino Secundo	*	*I"Clarino Primo	*I"Hobois 2do	*I"Hobois Primo
*mI"Basso continuo	*	*mI"Violino II	*	*mI"Violino I	*	*mI"Tenore	*	*	*mI"Soprano	*	*	*mI"Clarino II in D	*	*mI"Clarino I in D	*mI"Oboe II	*mI"Oboe I
*I'bc	*	*I'vl 2	*	*I'vl 1	*	*I'T	*	*	*I'S	*	*	*I'clno 2	*	*I'clno 1	*I'ob 2	*I'ob 1
*clefF4	*	*clefG2	*	*clefG2	*	*clefC4	*	*	*clefC1	*	*	*clefG2	*	*clefG2	*clefG2	*clefG2
*	*	*	*	*	*	*mclefG2v	*	*	*mclefG2	*	*	*	*	*	*	*
*ITrd0c0	*	*	*	*	*	*	*	*	*	*	*	*ITrd-1c-2	*	*ITrd-1c-2	*	*
*k[f#c#]	*	*k[f#c#]	*	*k[f#c#]	*	*k[f#c#]	*	*	*k[f#c#]	*	*	*k[f#c#]	*	*k[f#c#]	*k[f#c#]	*k[f#c#]
*D:	*	*D:	*	*D:	*	*D:	*	*	*D:	*	*	*D:	*	*D:	*D:	*D:
*M4/4	*	*M4/4	*	*M4/4	*	*M4/4	*	*	*M4/4	*	*	*M4/4	*	*M4/4	*M4/4	*M4/4
*met(c)	*	*met(c)	*	*met(c)	*	*met(c)	*	*	*met(c)	*	*	*met(c)	*	*met(c)	*met(c)	*met(c)
*mmet(c)	*	*mmet(c)	*	*mmet(c)	*	*mmet(c)	*	*	*mmet(c)	*	*	*mmet(c)	*	*mmet(c)	*mmet(c)	*mmet(c)
=1	=1	=1	=1	=1	=1	=1	=1	=1	=1	=1	=1	=1	=1	=1	=1	=1
!!!OMD:
!!!OMD-mod: Adagio
!LO:TX:b:i:t=Kirie:mod=	!	!LO:TX:b:i:t=Kirie:mod=	!	!LO:TX:b:t=Kirie:mod=	!	!	!	!	!	!	!	!LO:TX:b:i:t=Kirie:mod=	!	!LO:TX:b:i:t=Kirie:mod=	!LO:TX:b:i:t=Kirie:mod=	!LO:TX:b:i:t=Kirie:mod=
!LO:TX:a:i:t=Adagio:mod=	!	!LO:TX:a:i:t=Adagio:mod=	!	!LO:TX:a:i:t=Adagio:mod=	!	!LO:TX:a:t=AdaGio&colon;:mod=	!	!	!LO:TX:a:t=Adgio:mod=	!	!	!LO:TX:a:i:t=Adagio:mod=	!	!LO:TX:a:i:t=Adagio:mod=	!LO:TX:a:i:t=Adagio:mod=	!LO:TX:a:i:t=Adagio:mod=
4.D\	.	4.ff#\	.	4.aa\	.	4.d\	Ki-	Ky-	4.ff#\	Ki-	Ky-	4dd\	.	4ff#\	4.dd\	4.aa\
.	.	.	.	.	.	.	.	.	.	.	.	4dd\	.	4ff#\	.	.
8D\	.	8ff#\	.	8aa\	.	8d\	-ri-	-ri-	8ff#\	-ri-	-ri-	.	.	.	8dd\	8aa\
4D\	.	4ff#\	.	4aa\	.	4d\	-e	-e	4ff#\	-e	-e	4dd\	.	4ff#\	4dd\	4aa\
4r	.	4r	.	4r	.	4r	.	.	4r	.	.	4r	.	4r	4r	4r
=2	=2	=2	=2	=2	=2	=2	=2	=2	=2	=2	=2	=2	=2	=2	=2	=2
4D\	.	4ff#\	.	4aa\	.	4A/	ki-	ky-	4ff#\	ki-	ky-	4dd\	.	4ff#\	4.dd\	4aa\
4D\	.	4ff#\	.	4aa\	.	4A/	-ri-	-ri-	4ff#\	-ri-	-ri-	4dd\	.	4ff#\	.	4aa\
.	.	.	.	.	.	.	.	.	.	.	.	.	.	.	8dd\	.
4A\	.	4ee\	.	4ccc#\	.	4c#\	-e	-e	4ee\	-e	-e	4a/	.	4ee\	4cc#\	4ccc#\
4r	.	4r	.	4r	.	4r	.	.	4r	.	.	4r	.	4r	4r	4r
=3	=3	=3	=3	=3	=3	=3	=3	=3	=3	=3	=3	=3	=3	=3	=3	=3
4F#\	.	4cc#\	.	4ee\	.	4c#\	ki-	ky-	4ee\	ki-	ky-	1r	.	1r	4cc#\	4ee\
4F#\	.	4cc#\	.	4ee\	.	4c#\	-ri-	-ri-	4ee\	-ri-	-ri-	.	.	.	4cc#\	4ee\
4B\	.	4b\	.	4dd\	.	4B\	-e	-e	4dd\	-e	-e	.	.	.	4b\	4dd\
4E\	.	4cc#\	.	4gg\	.	8c#\L	e-	e-	8cc#\L	e-	e-	.	.	.	4cc#\	4gg\
.	.	.	.	.	.	8d\J	.	.	8b\J	.	.	.	.	.	.	.
=4	=4	=4	=4	=4	=4	=4	=4	=4	=4	=4	=4	=4	=4	=4	=4	=4
*2\right	*	*2\right	*	*2\right	*	*2\right	*	*	*2\right	*	*	*	*	*	*	*2\right
2F#\	.	2a#X/	.	2cc#\	.	2c#\	-lei-	-lei-	2a#X\	-lei-	-lei-	4f#/	.	4f#/	2a#X/	2cc#\
.	.	.	.	.	.	.	.	.	.	.	.	8f#/L	.	8f#/L	.	.
.	.	.	.	.	.	.	.	.	.	.	.	8f#/J	.	8f#/J	.	.
2BB/	.	2b\	.	2dd\	.	2d\	-son	-son	2b\	-son	-son	2f#/	.	2f#/	2b/	2dd\
=5	=5	=5	=5	=5	=5	=5	=5	=5	=5	=5	=5	=5	=5	=5	=5	=5
!	!	!	!	!	!	!	!	!	!	!	!	!LO:SIC:v:s=4dd#	!	!	!LO:SIC:v:s=4dd#	!
4B\	.	4dd#X\	.	4ff#\	.	4d#X\	ki-	ky-	4ff#\	ki-	ky-	4dd\	.	4ff#\	4dd\	4ff#\
!	!	!	!	!	!	!	!	!	!	!	!	!LO:SIC:v:s=4dd#	!	!	!LO:SIC:v:s=4dd#	!
4A\	.	4dd#\	.	4ff#\	.	4d#\	-ri-	-ri-	4ff#\	-ri-	-ri-	4dd\	.	4ff#\	4dd\	4ff#\
4G\	.	4ee\	.	4gg\	.	2e\	-e	-e	2gg\	-e	-e	4ee\	.	4gg\	4ee\	4gg\
4E\	.	4ee\	.	4gg\	.	.	.	.	.	.	.	4ee\	.	4gg\	4ee\	4gg\
=6	=6	=6	=6	=6	=6	=6	=6	=6	=6	=6	=6	=6	=6	=6	=6	=6
*	*	*	*	*	*	*	*ij	*ij	*	*ij	*ij	*	*	*	*	*
4A\	.	4cc#\	.	4ee\	.	4c#\	ki-	ky-	4ee\	ki-	ky-	4a/	.	4ee\	4cc#\	4ee\
4G\	.	4cc#\	.	4ee\	.	4c#\	-ri-	-ri-	4ee\	-ri-	-ri-	4a/	.	4ee\	4cc#\	4ee\
4F#\	.	4dd\	.	4ff#\	.	2d\	-e	-e	2ff#\	-e	-e	4dd\	.	4ff#\	4dd\	4ff#\
4D\	.	4dd\	.	4ff#\	.	.	.	.	.	.	.	4dd\	.	4ff#\	4dd\	4ff#\
*	*	*	*	*	*	*	*Xij	*Xij	*	*Xij	*Xij	*	*	*	*	*
!	!	!	!	!	!	!LO:LB:g=original	!	!	!	!	!	!	!	!	!	!
=7	=7	=7	=7	=7	=7	=7	=7	=7	=7	=7	=7	=7	=7	=7	=7	=7
4D\	.	4a/	.	4dd\	.	4A\	ki-	ky-	4dd\	ki-	ky-	4dd\	.	4dd\	4a/	4dd\
4A\	.	4a/	.	4dd\	.	4A\	-ri-	-ri-	4dd\	-ri-	-ri-	4dd\	.	4dd\	4a/	4dd\
!	!	!	!	!	!	!	!	!	!LO:LB:g=original	!	!	!	!	!	!	!
4B\	.	8b\L	.	8dd\L	.	8B\L	-e	-e	8dd\L	-e	-e	4dd\	.	4dd\	8b\L	8dd\L
.	.	8cc#\J	.	8ee\J	.	8c#\J	.	.	8ee\J	.	.	.	.	.	8cc#\J	8ee\J
8F#\L	.	4dd\	.	4ff#\	.	4d\	e-	e-	4ff#\	e-	e-	4dd\	.	4ff#\	4dd\	4ff#\
8G\J	.	.	.	.	.	.	.	.	.	.	.	.	.	.	.	.
=8	=8	=8	=8	=8	=8	=8	=8	=8	=8	=8	=8	=8	=8	=8	=8	=8
*	*	*	*	*	*	*	*	*	*	*	*	*2\right	*	*2\right	*2\right	*
4A\	.	2cc#\	.	2ee\	.	2c#\	-lei-	-lei-	2ee\	-lei-	-lei-	4a/	.	4ee\	2cc#\	2ee\
4AA/	.	.	.	.	.	.	.	.	.	.	.	4a/	.	4ee\	.	.
2D\	.	2dd\	.	2ff#\	.	2d\	-son	-son	2ff#\	-son	-son	2dd\	.	2ff#\	2dd\	2ff#\
!	!	!	!	!LO:LB:g=original	!	!	!	!	!	!	!	!	!	!	!	!
=9	=9	=9	=9	=9	=9	=9	=9	=9	=9	=9	=9	=9	=9	=9	=9	=9
4D\	.	4ff#\	.	4aa\	.	4d\	ki-	ky-	4ff#\	ki-	ky-	4dd\	.	4ff#\	4ff#\	4aa\
8F#\L	.	4ff#\	.	4ddd\	.	4d\	-ri-	-ri-	4ff#\	-ri-	-ri-	4dd\	.	4ff#\	4ff#\	4ddd\
8G\J	.	.	.	.	.	.	.	.	.	.	.	.	.	.	.	.
4A\	.	4ee\	.	4ccc#\	.	4c#\	-e	-e	4ee\	-e	-e	4a/	.	4ee\	4ee\	4ccc#\
4AA/	.	4ee\	.	4ccc#\	.	4c#\	e-	e-	4ee\	e-	e-	4a/	.	4ee\	4ee\	4ccc#\
=10	=10	=10	=10	=10	=10	=10	=10	=10	=10	=10	=10	=10	=10	=10	=10	=10
4D\	.	4ff#\	.	4ddd\	.	2d\	-lei-	-lei-	2ff#\	-lei-	-lei-	4dd\	.	4ff#\	4ff#\	4aa\
8F#\L	.	4ff#\	.	4ddd\	.	.	.	.	.	.	.	4dd\	.	4ff#\	4ff#\	4ddd\
8G\J	.	.	.	.	.	.	.	.	.	.	.	.	.	.	.	.
4A\	.	4ee\	.	4ccc#\	.	2c#\	-son	-son	2ee\	-son	-son	4a/	.	4ee\	2ee\	2ccc#\
4AA/	.	4ee\	.	4ccc#\	.	.	.	.	.	.	.	4a/	.	4ee\	.	.
=11	=11	=11	=11	=11	=11	=11	=11	=11	=11	=11	=11	=11	=11	=11	=11	=11
4F#\	.	4a/	.	4ddd\	.	4A\	ki-	ky-	4dd\	ki-	ky-	2r	.	2r	4a/	4ddd\
4D\	.	4f#/	.	4dd\	.	4F#/	-ri-	-ri-	4dd\	-ri-	-ri-	.	.	.	4f#/	4dd\
4G\	.	8b\L	.	8dd\L	.	8B\L	-e	-e	8dd\L	-e	-e	4r	.	4r	8b\L	8dd\L
.	.	8cc#\J	.	8ee\J	.	8c#\J	.	.	8ee\J	.	.	.	.	.	8cc#\J	8ee\J
4D\	.	4dd\	.	4ff#\	.	4d\	e	e	4ff#\	e-	e-	4dd\	.	4ff#\	4dd\	4ff#\
=12	=12	=12	=12	=12	=12	=12	=12	=12	=12	=12	=12	=12	=12	=12	=12	=12
!	!	!	!	!	!	!	!	!	!	!LO:SIC:v:s=-lei-	!LO:SIC:v:s=-lei-	!	!	!	!	!
4A\	.	2cc#\	.	2ee\	.	2c#\	-lei-	-lei-	2ee\	-lie-	-lie-	2a/	.	2ee\	2cc#\	2ee\
4AA/	.	.	.	.	.	.	.	.	.	.	.	.	.	.	.	.
!LO:N:vis=4.	!	!	!	!	!	!	!	!	!	!	!	!	!	!	!	!
4D\	.	4dd\	.	4ff#\	.	4d\	-son	-son	4ff#\	-son	-son	4dd\	.	4ff#\	4dd\	4ff#\
8d\L	.	8ff#\L	.	4dd\	.	8f#\L	e-	e-	4dd\	e-	e-	4r	.	4r	8ff#\L	4dd\
8c#\J	.	8ee\J	.	.	.	8d\J	.	.	.	.	.	.	.	.	8ee\J	.
!LO:LB:g=original	!	!	!	!	!	!	!	!	!	!	!	!	!	!	!	!
=13	=13	=13	=13	=13	=13	=13	=13	=13	=13	=13	=13	=13	=13	=13	=13	=13
8B\L	.	8dd\L	.	4ddd\	.	8d\L	-lei-	-lei-	2dd\	-lei-	-lei-	1r	.	1r	8dd\L	4ddd\
8A\	.	8cc#\	.	.	.	8c#\	.	.	.	.	.	.	.	.	8cc#\	.
8G\	.	8b\	.	4dd\	.	8B\	.	.	.	.	.	.	.	.	8b\	4dd\
8F#\J	.	8a\J	.	.	.	8A\J	.	.	.	.	.	.	.	.	8a\J	.
4G\	.	4b\	.	4dd\	.	4B\	.	.	4dd\	.	.	.	.	.	4b\	4dd\
4A\	.	4cc#\	.	4ee\	.	4c#\	.	.	4ee\	.	.	.	.	.	4cc#\	4ee\
!	!	!LO:LB:g=original	!	!	!	!	!	!	!	!	!	!	!	!LO:LB:g=original	!LO:LB:g=original	!
=14	=14	=14	=14	=14	=14	=14	=14	=14	=14	=14	=14	=14	=14	=14	=14	=14
4B\	.	4dd\	.	4ff#\	.	4d\	-son	-son	4ff#\	-son	-son	4dd\	.	4ff#\	4dd\	4ff#\
8F#\L	.	4dd\	.	4ff#\	.	4d\	e-	e-	4ff#\	e-	e-	4dd\	.	4ff#\	4dd\	4ff#\
8G\J	.	.	.	.	.	.	.	.	.	.	.	.	.	.	.	.
!	!	!	!	!	!	!	!	!	!	!	!	!LO:LB:g=original	!	!	!	!
4A\	.	2cc#\	.	2ee\	.	2c#\	-lei-	-lei-	2ee\	-lei-	-lei-	2a/	.	2ee\	2cc#\	2ee\
4AA/	.	.	.	.	.	.	.	.	.	.	.	.	.	.	.	.
=15	=15	=15	=15	=15	=15	=15	=15	=15	=15	=15	=15	=15	=15	=15	=15	=15
!	!	!	!	!	!	!	!	!	!	!	!	!	!	!	!LO:MO:mod=2dd	!
2D\	.	2dd\	.	2ff#\	.	2d\	-son	-son	2ff#\	-son	-son	2dd\	.	2ff#\	2dd;\	2ff#\
2r	.	2r	.	2r	.	2r	.	.	2r	.	.	2r	.	2r	2r	2r
!	!	!	!	!LO:LB:g=original	!	!LO:LB:g=original	!	!	!LO:LB:g=original	!	!	!	!	!	!LO:LB:g=original	!LO:LB:g=original
=16||	=16||	=16||	=16||	=16||	=16||	=16||	=16||	=16||	=16||	=16||	=16||	=16||	=16||	=16||	=16||	=16||
*M3/8	*	*M3/8	*	*M3/8	*	*M3/8	*	*	*M3/8	*	*	*M3/8	*	*M3/8	*M3/8	*M3/8
!!!OMD:
!!!OMD-mod: Moderato
!LO:TX:a:i:t=Moderato:mod=	!	!LO:TX:a:i:t=moderato:mod=	!	!LO:TX:a:i:t=Moderato:mod=	!	!	!	!	!	!	!	!	!	!	!	!
!LO:TX:b:i:rj:t=Christe:mod=	!	!LO:TX:b:i:t=Christe:mod=	!	!LO:TX:b:i:t=Christe:mod=	!	!LO:N:vis=00	!	!	!LO:TX:a:t=Tacet \nChriste:mod=	!	!	!LO:TX:a:t=Christe Tacet//Kirie Tacet//:mod=	!	!LO:TX:a:t=Christe Tacet \nKirie Tacet:mod=	!	!
4BB/	.	16b\LL	.	16b\LL	.	1.r	.	.	4.ryy	.	.	4.ryy	.	4.ryy	4.ryy	4.ryy
!	!	!LO:MO:mod=16cc#JJ	!	!	!	!	!	!	!	!	!	!	!	!	!	!
.	.	16cc#\	.	16cc#\JJ	.	.	.	.	.	.	.	.	.	.	.	.
!	!	!LO:MO:mod=8ddL	!	!	!	!	!	!	!	!	!	!	!	!	!	!
.	.	8dd\	.	8dd\L	.	.	.	.	.	.	.	.	.	.	.	.
!	!	!LO:MO:mod=8eeJ	!	!	!	!	!	!	!	!	!	!	!	!	!	!
8r	.	8ee\JJ	.	8ee\J	.	.	.	.	.	.	.	.	.	.	.	.
=17	=17	=17	=17	=17	=17	=17	=17	=17	=17	=17	=17	=17	=17	=17	=17	=17
16BB/LL	.	16ff#\LL	.	16ff#\LL	.	.	.	.	4.ryy	.	.	4.ryy	.	4.ryy	4.ryy	4.ryy
16C#/JJ	.	16aa#X\JJ	.	16aa#X\JJ	.	.	.	.	.	.	.	.	.	.	.	.
!	!	!LO:MO:null:mod=8qqaa#@	!	!	!	!	!	!	!	!	!	!	!	!	!	!
.	.	.	.	8qqaa#/	.	.	.	.	.	.	.	.	.	.	.	.
8D\L	.	4bb\	.	4bb\	.	.	.	.	.	.	.	.	.	.	.	.
8BB\J	.	.	.	.	.	.	.	.	.	.	.	.	.	.	.	.
=18	=18	=18	=18	=18	=18	=18	=18	=18	=18	=18	=18	=18	=18	=18	=18	=18
!LO:TX:a:t=P:problem=mixed beam	!	!	!	!	!	!	!	!	!	!	!	!	!	!	!	!
8E\L	.	8gg\L	.	8gg\L	.	.	.	.	4.ryy	.	.	4.ryy	.	4.ryy	4.ryy	4.ryy
8F#\	.	8ff#\	.	8ff#\	.	.	.	.	.	.	.	.	.	.	.	.
8FF#/J	.	8ee\J	.	8ee\J	.	.	.	.	.	.	.	.	.	.	.	.
=19	=19	=19	=19	=19	=19	=19	=19	=19	=19	=19	=19	=19	=19	=19	=19	=19
8BB/L	.	16dd\LL	.	16dd\LL	.	.	.	.	4.ryy	.	.	4.ryy	.	4.ryy	4.ryy	4.ryy
.	.	16cc#\JJ	.	16cc#\JJ	.	.	.	.	.	.	.	.	.	.	.	.
8D/	.	4b\	.	4b\	.	.	.	.	.	.	.	.	.	.	.	.
8BB/J	.	.	.	.	.	.	.	.	.	.	.	.	.	.	.	.
=20	=20	=20	=20	=20	=20	=20	=20	=20	=20	=20	=20	=20	=20	=20	=20	=20
!	!	!	!	!	!	!LO:N:vis=00	!	!	!	!	!	!	!	!	!	!
8F#\L	.	16cc#\LL	.	16cc#\LL	.	1.r	.	.	4.ryy	.	.	4.ryy	.	4.ryy	4.ryy	4.ryy
.	.	16dd\JJ	.	16dd\JJ	.	.	.	.	.	.	.	.	.	.	.	.
8A#X\	.	4ee\	.	4ee\	.	.	.	.	.	.	.	.	.	.	.	.
8F#\J	.	.	.	.	.	.	.	.	.	.	.	.	.	.	.	.
=21	=21	=21	=21	=21	=21	=21	=21	=21	=21	=21	=21	=21	=21	=21	=21	=21
8B\L	.	16dd\LL	.	16dd\LL	.	.	.	.	4.ryy	.	.	4.ryy	.	4.ryy	4.ryy	4.ryy
!	!	!	!	!LO:MO:mod=16cc#J	!	!	!	!	!	!	!	!	!	!	!	!
.	.	16cc#\J	.	16cc#\JJ	.	.	.	.	.	.	.	.	.	.	.	.
!	!	!	!	!LO:MO:mod=8bJ	!	!	!	!	!	!	!	!	!	!	!	!
8D\	.	8b\J	.	8b\	.	.	.	.	.	.	.	.	.	.	.	.
8F#\J	.	8r	.	8r	.	.	.	.	.	.	.	.	.	.	.	.
=22	=22	=22	=22	=22	=22	=22	=22	=22	=22	=22	=22	=22	=22	=22	=22	=22
4BB/	.	16b\LL	.	16b\LL	.	.	.	.	4.ryy	.	.	4.ryy	.	4.ryy	4.ryy	4.ryy
.	.	16cc#\	.	16cc#\	.	.	.	.	.	.	.	.	.	.	.	.
!	!	!	!	!LO:SIC:v:s=16dd#	!	!	!	!	!	!	!	!	!	!	!	!
.	.	16dd#X\	.	16dd\	.	.	.	.	.	.	.	.	.	.	.	.
.	.	16ee\	.	16ee\	.	.	.	.	.	.	.	.	.	.	.	.
8r	.	16ff#\	.	16ff#\	.	.	.	.	.	.	.	.	.	.	.	.
.	.	16gg\JJ	.	16gg\JJ	.	.	.	.	.	.	.	.	.	.	.	.
=23	=23	=23	=23	=23	=23	=23	=23	=23	=23	=23	=23	=23	=23	=23	=23	=23
!LO:TX:a:t=P:problem=mixed beam	!	!	!	!	!	!	!	!	!	!	!	!	!	!	!	!
8BB/L	.	4.aa\	.	4.aa\	.	.	.	.	4.ryy	.	.	4.ryy	.	4.ryy	4.ryy	4.ryy
8F#\	.	.	.	.	.	.	.	.	.	.	.	.	.	.	.	.
8E\J	.	.	.	.	.	.	.	.	.	.	.	.	.	.	.	.
=24	=24	=24	=24	=24	=24	=24	=24	=24	=24	=24	=24	=24	=24	=24	=24	=24
8D#X\L	.	8cccn\L	.	8cccn\L	.	1.r	.	.	4.ryy	.	.	4.ryy	.	4.ryy	4.ryy	4.ryy
8BB\	.	8bb\	.	8bb\	.	.	.	.	.	.	.	.	.	.	.	.
8D#\J	.	8aa\J	.	8aa\J	.	.	.	.	.	.	.	.	.	.	.	.
=25	=25	=25	=25	=25	=25	=25	=25	=25	=25	=25	=25	=25	=25	=25	=25	=25
8E\L	.	16gg\LL	.	16gg\LL	.	.	.	.	4.ryy	.	.	4.ryy	.	4.ryy	4.ryy	4.ryy
.	.	16ff#\J	.	16ff#\J	.	.	.	.	.	.	.	.	.	.	.	.
8G\	.	8ee\J	.	8ee\J	.	.	.	.	.	.	.	.	.	.	.	.
8E\J	.	8r	.	8r	.	.	.	.	.	.	.	.	.	.	.	.
=26	=26	=26	=26	=26	=26	=26	=26	=26	=26	=26	=26	=26	=26	=26	=26	=26
4AA/	.	16a\LL	.	16a\LL	.	.	.	.	4.ryy	.	.	4.ryy	.	4.ryy	4.ryy	4.ryy
.	.	16b\	.	16b\	.	.	.	.	.	.	.	.	.	.	.	.
.	.	16cc#\	.	16cc#\	.	.	.	.	.	.	.	.	.	.	.	.
.	.	16dd\	.	16dd\	.	.	.	.	.	.	.	.	.	.	.	.
8r	.	16ee\	.	16ee\	.	.	.	.	.	.	.	.	.	.	.	.
.	.	16ff#\JJ	.	16ff#\JJ	.	.	.	.	.	.	.	.	.	.	.	.
=27	=27	=27	=27	=27	=27	=27	=27	=27	=27	=27	=27	=27	=27	=27	=27	=27
!LO:TX:a:t=P:problem=mixed beam	!	!	!	!	!	!	!	!	!	!	!	!	!	!	!	!
!	!	!	!	!	!	!LO:N:vis=00	!	!	!	!	!	!	!	!	!	!
8AA/L	.	4.gg\	.	4.gg\	.	.	.	.	4.ryy	.	.	4.ryy	.	4.ryy	4.ryy	4.ryy
8E\	.	.	.	.	.	.	.	.	.	.	.	.	.	.	.	.
8D\J	.	.	.	.	.	.	.	.	.	.	.	.	.	.	.	.
=28	=28	=28	=28	=28	=28	=28	=28	=28	=28	=28	=28	=28	=28	=28	=28	=28
!	!	!	!	!	!	!LO:N:vis=00	!	!	!	!	!	!	!	!	!	!
8C#/L	.	8bb\L	.	8bb\L	.	1.r	.	.	4.ryy	.	.	4.ryy	.	4.ryy	4.ryy	4.ryy
8AA/	.	8aa\	.	8aa\	.	.	.	.	.	.	.	.	.	.	.	.
8C#/J	.	8gg\J	.	8gg\J	.	.	.	.	.	.	.	.	.	.	.	.
!LO:LB:g=original	!	!	!	!	!	!	!	!	!	!	!	!	!	!	!	!
=29	=29	=29	=29	=29	=29	=29	=29	=29	=29	=29	=29	=29	=29	=29	=29	=29
8D\L	.	16ff#\LL	.	16ff#\LL	.	.	.	.	4.ryy	.	.	4.ryy	.	4.ryy	4.ryy	4.ryy
.	.	16ee\J	.	16ee\J	.	.	.	.	.	.	.	.	.	.	.	.
8F#\	.	8dd\	.	8dd\	.	.	.	.	.	.	.	.	.	.	.	.
8D\J	.	8ff#\J	.	8ff#\J	.	.	.	.	.	.	.	.	.	.	.	.
!	!	!LO:LB:g=original	!	!	!	!	!	!	!	!	!	!	!	!	!	!
=30	=30	=30	=30	=30	=30	=30	=30	=30	=30	=30	=30	=30	=30	=30	=30	=30
!LO:TX:a:t=P:problem=mixed beam	!	!	!	!	!	!	!	!	!	!	!	!	!	!	!	!
8BB/L	.	8ff#\L	.	8ff#\L	.	.	.	.	4.ryy	.	.	4.ryy	.	4.ryy	4.ryy	4.ryy
8G\	.	16ee\L	.	16ee\L	.	.	.	.	.	.	.	.	.	.	.	.
.	.	16dd\	.	16dd\	.	.	.	.	.	.	.	.	.	.	.	.
8E\J	.	16cc#\	.	16cc#\	.	.	.	.	.	.	.	.	.	.	.	.
.	.	16b\JJ	.	16b\JJ	.	.	.	.	.	.	.	.	.	.	.	.
=31	=31	=31	=31	=31	=31	=31	=31	=31	=31	=31	=31	=31	=31	=31	=31	=31
8F#\L	.	16a#X/LL	.	16a#X/LL	.	.	.	.	4.ryy	.	.	4.ryy	.	4.ryy	4.ryy	4.ryy
.	.	16g#X/J	.	16g#X/J	.	.	.	.	.	.	.	.	.	.	.	.
16F#\L	.	8f#/J	.	8f#/J	.	.	.	.	.	.	.	.	.	.	.	.
16E\	.	.	.	.	.	.	.	.	.	.	.	.	.	.	.	.
16D\	.	8r	.	8r	.	.	.	.	.	.	.	.	.	.	.	.
16C#\JJ	.	.	.	.	.	.	.	.	.	.	.	.	.	.	.	.
!	!	!	!	!LO:LB:g=original	!	!	!	!	!	!	!	!	!	!	!	!
=32	=32	=32	=32	=32	=32	=32	=32	=32	=32	=32	=32	=32	=32	=32	=32	=32
!	!	!LO:TX:a:t=P:problem=mixed beam	!	!LO:TX:a:t=P:problem=mixed beam	!	!	!	!	!	!	!	!	!	!	!	!
!	!	!	!	!	!	!LO:N:vis=00	!	!	!	!	!	!	!	!	!	!
8BB/L	.	16b/LL	.	16b/LL	.	1.r	.	.	4.ryy	.	.	4.ryy	.	4.ryy	4.ryy	4.ryy
.	.	16aa#\JJ	.	16aa#X\JJ	.	.	.	.	.	.	.	.	.	.	.	.
!	!	!	!	!LO:TX:a:t=bis:mod=	!	!	!	!	!	!	!	!	!	!	!	!
8D/	.	16bb\LL	.	16bb\LL	.	.	.	.	.	.	.	.	.	.	.	.
.	.	16aa#\	.	16aa#\	.	.	.	.	.	.	.	.	.	.	.	.
8BB/J	.	16bb\	.	16bb\	.	.	.	.	.	.	.	.	.	.	.	.
.	.	16aa#\JJ	.	16aa#\JJ	.	.	.	.	.	.	.	.	.	.	.	.
=33	=33	=33	=33	=33	=33	=33	=33	=33	=33	=33	=33	=33	=33	=33	=33	=33
!	!	!LO:TX:a:t=P:problem=mixed beam	!	!LO:TX:a:t=P:problem=mixed beam	!	!	!	!	!	!	!	!	!	!	!	!
16D\LL	.	16bb\LL	.	16bb\LL	.	.	.	.	4.ryy	.	.	4.ryy	.	4.ryy	4.ryy	4.ryy
16E\JJ	.	16b/JJ	.	16b/JJ	.	.	.	.	.	.	.	.	.	.	.	.
!LO:TX:a:t=P:problem=mixed beam	!	!	!	!	!	!	!	!	!	!	!	!	!	!	!	!
8F#\L	.	8dd\L	.	8dd\L	.	.	.	.	.	.	.	.	.	.	.	.
8FF#/J	.	8cc#\J	.	8cc#\J	.	.	.	.	.	.	.	.	.	.	.	.
=34	=34	=34	=34	=34	=34	=34	=34	=34	=34	=34	=34	=34	=34	=34	=34	=34
!	!	!LO:TX:a:t=P:problem=mixed beam	!	!LO:TX:a:t=P:problem=mixed beam	!	!	!	!	!	!	!	!	!	!	!	!
!LO:TX:t=P:problem=w źródle takty 34-35 zapisane jako repetycja taktów 32-33	!	!	!	!LO:TX:t=P:problem=w źródle takty 34-35 zapisane jako repetycja taktów 32-33	!	!	!	!	!	!	!	!	!	!	!	!
8BB/Lyy	.	16b/LL	.	16b/LLyy	.	.	.	.	4.ryy	.	.	4.ryy	.	4.ryy	4.ryy	4.ryy
.	.	16aa#\JJ	.	16aa#X\JJyy	.	.	.	.	.	.	.	.	.	.	.	.
8D/yy	.	16bb\LL	.	16bb\LLyy	.	.	.	.	.	.	.	.	.	.	.	.
.	.	16aa#\	.	16aa#\yy	.	.	.	.	.	.	.	.	.	.	.	.
8BB/Jyy	.	16bb\	.	16bb\yy	.	.	.	.	.	.	.	.	.	.	.	.
.	.	16aa#\JJ	.	16aa#\JJyy	.	.	.	.	.	.	.	.	.	.	.	.
=35	=35	=35	=35	=35	=35	=35	=35	=35	=35	=35	=35	=35	=35	=35	=35	=35
!	!	!LO:TX:a:t=P:problem=mixed beam	!	!LO:TX:a:t=P:problem=mixed beam	!	!	!	!	!	!	!	!	!	!	!	!
16D\LLyy	.	16bb\LL	.	16bb\LLyy	.	.	.	.	4.ryy	.	.	4.ryy	.	4.ryy	4.ryy	4.ryy
16E\JJyy	.	16b/JJ	.	16b/JJyy	.	.	.	.	.	.	.	.	.	.	.	.
!LO:TX:a:t=P:problem=mixed beam	!	!	!	!	!	!	!	!	!	!	!	!	!	!	!	!
8F#\Lyy	.	8dd\L	.	8dd\Lyy	.	.	.	.	.	.	.	.	.	.	.	.
8FF#/Jyy	.	8cc#\J	.	8cc#\Jyy	.	.	.	.	.	.	.	.	.	.	.	.
=36	=36	=36	=36	=36	=36	=36	=36	=36	=36	=36	=36	=36	=36	=36	=36	=36
!LO:TX:a:t=P:problem=mixed beam	!	!	!	!	!	!	!	!	!	!	!	!	!	!	!	!
!	!	!	!	!	!	!LO:N:vis=0	!	!	!	!	!	!	!	!	!	!
8BB/L	.	16b\LL	.	16b\LL	.	2.r	.	.	4.ryy	.	.	4.ryy	.	4.ryy	4.ryy	4.ryy
.	.	16dd\JJ	.	16dd\JJ	.	.	.	.	.	.	.	.	.	.	.	.
!	!	!LO:MO:mod=8ddTL	!	!	!	!	!	!	!	!	!	!	!	!	!	!
8E#X\	.	8dd\L	.	8ddT\L	.	.	.	.	.	.	.	.	.	.	.	.
8E#\J	.	16cc#\L	.	16cc#\L	.	.	.	.	.	.	.	.	.	.	.	.
.	.	16b\JJ	.	16b\JJ	.	.	.	.	.	.	.	.	.	.	.	.
=37	=37	=37	=37	=37	=37	=37	=37	=37	=37	=37	=37	=37	=37	=37	=37	=37
8F#\L	.	16a#X/LL	.	16a#X/LL	.	.	.	.	4.ryy	.	.	4.ryy	.	4.ryy	4.ryy	4.ryy
.	.	16b/JJ	.	16b/JJ	.	.	.	.	.	.	.	.	.	.	.	.
8F#\	.	8d/L	.	8d/L	.	.	.	.	.	.	.	.	.	.	.	.
8F#\J	.	8c#/J	.	8c#/J	.	.	.	.	.	.	.	.	.	.	.	.
=38	=38	=38	=38	=38	=38	=38	=38	=38	=38	=38	=38	=38	=38	=38	=38	=38
!	!	!LO:MO:mod=4B	!	!LO:MO:mod=4B	!	!	!	!	!	!	!	!	!	!	!	!
4BB/	.	4B;/	.	4B;/	.	4.r	.	.	4.ryy	.	.	4.ryy	.	4.ryy	4.ryy	4.ryy
8r	.	8r	.	8r	.	.	.	.	.	.	.	.	.	.	.	.
=39	=39	=39	=39	=39	=39	=39	=39	=39	=39	=39	=39	=39	=39	=39	=39	=39
!	!LO:DY:ed=brack	!	!LO:DY:t=pia	!	!	!	!	!	!	!	!	!	!	!	!	!
!	!LO:MO:null:mod=p	!	!LO:DY:a	!	!LO:DY:a	!	!	!	!	!	!	!	!	!	!	!
4BB/	.	4dd\	p	16b\LL	p	16B\LL	Chri-	Chri-	4.ryy	.	.	4.ryy	.	4.ryy	4.ryy	4.ryy
.	.	.	.	16cc#\JJ	.	16c#\JJ	.	.	.	.	.	.	.	.	.	.
.	.	.	.	8dd\L	.	8d\	.	.	.	.	.	.	.	.	.	.
8r	.	8r	.	8ee\J	.	8e\	-ste	-ste	.	.	.	.	.	.	.	.
=40	=40	=40	=40	=40	=40	=40	=40	=40	=40	=40	=40	=40	=40	=40	=40	=40
16BB/LL	.	16dd\LL	.	16ff#\LL	.	16f#\LL	chri-	Chri-	4.ryy	.	.	4.ryy	.	4.ryy	4.ryy	4.ryy
16C#/JJ	.	16ee\JJ	.	16gg#X\JJ	.	16A#X\JJ	.	.	.	.	.	.	.	.	.	.
.	.	.	.	8qqaa/	.	.	.	.	.	.	.	.	.	.	.	.
8D\L	.	8ff#\L	.	4bb\	.	4B\	-ste	-ste	.	.	.	.	.	.	.	.
8BB\J	.	8dd\J	.	.	.	.	.	.	.	.	.	.	.	.	.	.
=41	=41	=41	=41	=41	=41	=41	=41	=41	=41	=41	=41	=41	=41	=41	=41	=41
.	.	.	.	.	.	16qqe/LL	.	.	.	.	.	.	.	.	.	.
.	.	.	.	.	.	16qqf#/JJ	.	.	.	.	.	.	.	.	.	.
!LO:TX:a:t=P:problem=mixed beam	!	!	!	!	!	!	!	!	!	!	!	!	!	!	!	!
8E\L	.	8ee\L	.	8gg\L	.	8g\	e-	e-	4.ryy	.	.	4.ryy	.	4.ryy	4.ryy	4.ryy
8F#\	.	8dd\	.	8ff#\	.	8f#\L	-lei-	-lei-	.	.	.	.	.	.	.	.
8FF#/J	.	8cc#\J	.	8ee\J	.	8e\J	.	.	.	.	.	.	.	.	.	.
=42	=42	=42	=42	=42	=42	=42	=42	=42	=42	=42	=42	=42	=42	=42	=42	=42
8BB/L	.	16b\LL	.	16dd\LL	.	16d\LL	.	.	4.ryy	.	.	4.ryy	.	4.ryy	4.ryy	4.ryy
.	.	16a#X\JJ	.	16cc#\JJ	.	16c#\JJ	.	.	.	.	.	.	.	.	.	.
8D/	.	4b\	.	4b\	.	4B\	-son	-son	.	.	.	.	.	.	.	.
8BB/J	.	.	.	.	.	.	.	.	.	.	.	.	.	.	.	.
=43	=43	=43	=43	=43	=43	=43	=43	=43	=43	=43	=43	=43	=43	=43	=43	=43
!	!	!LO:SIC:v:s=16a#LL	!	!	!	!	!	!	!	!	!	!	!	!	!	!
8F#\L	.	16a\LL	.	16cc#\LL	.	16c#\LL	e-	e-	4.ryy	.	.	4.ryy	.	4.ryy	4.ryy	4.ryy
.	.	16b\JJ	.	16dd\JJ	.	16d\JJ	.	.	.	.	.	.	.	.	.	.
8A#X\	.	4cc#\	.	4ee\	.	4e\	-lei-	-lei-	.	.	.	.	.	.	.	.
8F#\J	.	.	.	.	.	.	.	.	.	.	.	.	.	.	.	.
=44	=44	=44	=44	=44	=44	=44	=44	=44	=44	=44	=44	=44	=44	=44	=44	=44
8B\L	.	16b\LL	.	16dd\LL	.	16d\LL	.	.	4.ryy	.	.	4.ryy	.	4.ryy	4.ryy	4.ryy
!	!	!LO:SIC:v:s=16a#J	!	!	!	!	!	!	!	!	!	!	!	!	!	!
.	.	16a\J	.	16cc#\J	.	16c#\JJ	.	.	.	.	.	.	.	.	.	.
8D\	.	8b\J	.	8b\J	.	4B\	-son	-son	.	.	.	.	.	.	.	.
8F#\J	.	8r	.	8r	.	.	.	.	.	.	.	.	.	.	.	.
=45	=45	=45	=45	=45	=45	=45	=45	=45	=45	=45	=45	=45	=45	=45	=45	=45
4BB/	.	4dd#X\	.	16b\LL	.	16B\LL	Chri-	Chri-	4.ryy	.	.	4.ryy	.	4.ryy	4.ryy	4.ryy
.	.	.	.	16cc#\	.	16c#\JJ	.	.	.	.	.	.	.	.	.	.
.	.	.	.	16dd#X\	.	16d#X\LL	-ste	-ste	.	.	.	.	.	.	.	.
.	.	.	.	16ee\	.	16e\JJ	.	.	.	.	.	.	.	.	.	.
8r	.	8r	.	16ff#\	.	16f#\LL	e-	e-	.	.	.	.	.	.	.	.
.	.	.	.	16gg\JJ	.	16g\JJ	.	.	.	.	.	.	.	.	.	.
=46	=46	=46	=46	=46	=46	=46	=46	=46	=46	=46	=46	=46	=46	=46	=46	=46
!LO:TX:a:t=P:problem=mixed beam	!	!LO:TX:a:t=P:problem=mixed beam	!	!	!	!	!	!	!	!	!	!	!	!	!	!
!	!	!LO:SIC:v:s=8dd#L	!	!	!	!	!	!	!	!	!	!	!	!	!	!
8BB/L	.	8dd\L	.	4.aa\	.	4.a\	-lei-	-lei-	4.ryy	.	.	4.ryy	.	4.ryy	4.ryy	4.ryy
8F#\	.	8a/	.	.	.	.	.	.	.	.	.	.	.	.	.	.
8E\J	.	8g/J	.	.	.	.	.	.	.	.	.	.	.	.	.	.
!	!	!LO:LB:g=original	!	!	!	!	!	!	!	!	!	!	!	!	!	!
=47	=47	=47	=47	=47	=47	=47	=47	=47	=47	=47	=47	=47	=47	=47	=47	=47
!LO:SIC:v:s=8D#L	!	!LO:TX:a:t=P:problem=mixed beam	!	!	!	!	!	!	!	!	!	!	!	!	!	!
8D\L	.	16f#/LL	.	8cccn\L	.	8cn\L	.	.	4.ryy	.	.	4.ryy	.	4.ryy	4.ryy	4.ryy
.	.	16aa\J	.	.	.	.	.	.	.	.	.	.	.	.	.	.
!LO:SIC:v:s=8BB	!	!	!	!	!	!	!	!	!	!	!	!	!	!	!	!
8BB#X\	.	8gg\	.	8bb\	.	8B\	.	.	.	.	.	.	.	.	.	.
!LO:SIC:v:s=8D#J	!	!	!	!	!	!	!	!	!	!	!	!	!	!	!	!
8D\J	.	8ff#\J	.	8aa\J	.	8a\J	.	.	.	.	.	.	.	.	.	.
=48	=48	=48	=48	=48	=48	=48	=48	=48	=48	=48	=48	=48	=48	=48	=48	=48
8E\L	.	16ee\LL	.	16gg\LL	.	16g\LL	.	.	4.ryy	.	.	4.ryy	.	4.ryy	4.ryy	4.ryy
.	.	16dd#X\J	.	16ff#\J	.	16f#\JJ	.	.	.	.	.	.	.	.	.	.
8G\	.	8ee\J	.	8ee\J	.	8e\	-son	-son	.	.	.	.	.	.	.	.
8E\J	.	8r	.	8r	.	8r	.	.	.	.	.	.	.	.	.	.
!	!	!	!	!LO:LB:g=original	!	!LO:LB:g=original	!	!	!	!	!	!	!	!	!	!
=49	=49	=49	=49	=49	=49	=49	=49	=49	=49	=49	=49	=49	=49	=49	=49	=49
4AA/	.	4cc#\	.	16a\LL	.	16A\LL	Chri-	Chri-	4.ryy	.	.	4.ryy	.	4.ryy	4.ryy	4.ryy
.	.	.	.	16b\	.	16B\JJ	.	.	.	.	.	.	.	.	.	.
.	.	.	.	16cc#\	.	16c#\LL	-ste	-ste	.	.	.	.	.	.	.	.
.	.	.	.	16dd\	.	16d\JJ	.	.	.	.	.	.	.	.	.	.
8r	.	8r	.	16ee\	.	16e\LL	e-	e-	.	.	.	.	.	.	.	.
.	.	.	.	16ff#\JJ	.	16f#\JJ	.	.	.	.	.	.	.	.	.	.
=50	=50	=50	=50	=50	=50	=50	=50	=50	=50	=50	=50	=50	=50	=50	=50	=50
!LO:TX:a:t=P:problem=mixed beam	!	!	!	!	!	!	!	!	!	!	!	!	!	!	!	!
8AA/L	.	8cc#\L	.	4.gg\	.	4.g\	-lei-	-lei-	4.ryy	.	.	4.ryy	.	4.ryy	4.ryy	4.ryy
8E\	.	8g\	.	.	.	.	.	.	.	.	.	.	.	.	.	.
8D\J	.	8f#\J	.	.	.	.	.	.	.	.	.	.	.	.	.	.
!LO:LB:g=original	!	!	!	!	!	!	!	!	!	!	!	!	!	!	!	!
=51	=51	=51	=51	=51	=51	=51	=51	=51	=51	=51	=51	=51	=51	=51	=51	=51
!	!	!LO:TX:a:t=P:problem=mixed beam	!	!	!	!	!	!	!	!	!	!	!	!	!	!
8C#/L	.	16e/LL	.	8bb\L	.	8B\L	.	.	4.ryy	.	.	4.ryy	.	4.ryy	4.ryy	4.ryy
.	.	16gg\J	.	.	.	.	.	.	.	.	.	.	.	.	.	.
8AA/	.	8ff#\	.	8aa\	.	8A\	.	.	.	.	.	.	.	.	.	.
8C#/J	.	8ee\J	.	8gg\J	.	8g\J	.	.	.	.	.	.	.	.	.	.
=52	=52	=52	=52	=52	=52	=52	=52	=52	=52	=52	=52	=52	=52	=52	=52	=52
8D\L	.	16dd\LL	.	16ff#\LL	.	16f#\LL	.	.	4.ryy	.	.	4.ryy	.	4.ryy	4.ryy	4.ryy
.	.	16cc#\JJ	.	16ee\JJ	.	16e\JJ	.	.	.	.	.	.	.	.	.	.
8F#\	.	8dd\L	.	8dd\L	.	8d\	-son	-son	.	.	.	.	.	.	.	.
8D\J	.	8ff#\J	.	8aa\J	.	8A/	e	e	.	.	.	.	.	.	.	.
=53	=53	=53	=53	=53	=53	=53	=53	=53	=53	=53	=53	=53	=53	=53	=53	=53
8G\L	.	8dd\L	.	8bb\L	.	16B\LL	lei-	lei-	4.ryy	.	.	4.ryy	.	4.ryy	4.ryy	4.ryy
.	.	.	.	.	.	16d\	.	.	.	.	.	.	.	.	.	.
8G\	.	8dd\	.	8bb\	.	16e\	.	.	.	.	.	.	.	.	.	.
.	.	.	.	.	.	16f#\	.	.	.	.	.	.	.	.	.	.
8G\J	.	8dd\J	.	8bb\J	.	16g\	.	.	.	.	.	.	.	.	.	.
.	.	.	.	.	.	16B\JJ	.	.	.	.	.	.	.	.	.	.
=54	=54	=54	=54	=54	=54	=54	=54	=54	=54	=54	=54	=54	=54	=54	=54	=54
8D\L	.	8ff#\L	.	8aa\L	.	16A\LL	.	.	4.ryy	.	.	4.ryy	.	4.ryy	4.ryy	4.ryy
.	.	.	.	.	.	16c#\	.	.	.	.	.	.	.	.	.	.
8D\	.	8ff#\	.	8aa\	.	16d\	.	.	.	.	.	.	.	.	.	.
.	.	.	.	.	.	16e\	.	.	.	.	.	.	.	.	.	.
8D\J	.	8ff#\J	.	8aa\J	.	16f#\	.	.	.	.	.	.	.	.	.	.
.	.	.	.	.	.	16A\JJ	.	.	.	.	.	.	.	.	.	.
=55	=55	=55	=55	=55	=55	=55	=55	=55	=55	=55	=55	=55	=55	=55	=55	=55
8AA/L	.	8ee\L	.	8gg\L	.	16G\LL	.	.	4.ryy	.	.	4.ryy	.	4.ryy	4.ryy	4.ryy
.	.	.	.	.	.	16e\JJ	.	.	.	.	.	.	.	.	.	.
8AA/	.	8ee\	.	8gg\	.	16e\LL	.	.	.	.	.	.	.	.	.	.
.	.	.	.	.	.	16c#\JJ	.	.	.	.	.	.	.	.	.	.
8AA/J	.	8ee\J	.	8gg\J	.	16A\LL	.	.	.	.	.	.	.	.	.	.
.	.	.	.	.	.	16G\JJ	.	.	.	.	.	.	.	.	.	.
=56	=56	=56	=56	=56	=56	=56	=56	=56	=56	=56	=56	=56	=56	=56	=56	=56
8D\L	.	16dd\LL	.	16ff#\LL	.	16F#/	-son	-son	4.ryy	.	.	4.ryy	.	4.ryy	4.ryy	4.ryy
!	!	!LO:MO:mod=16ccc#JJ	!	!LO:MO:mod=16ccc#JJ	!	!	!	!	!	!	!	!	!	!	!	!
.	.	16ccc#\	.	16ccc#\	.	16c#\	e	e	.	.	.	.	.	.	.	.
.	.	.	.	.	.	8qqe/	.	.	.	.	.	.	.	.	.	.
!	!	!LO:MO:mod=16dddLL	!	!LO:MO:mod=16dddLL	!	!	!	!	!	!	!	!	!	!	!	!
8F#\	.	16ddd\	.	16ddd\	.	16d\LL	lei-	lei-	.	.	.	.	.	.	.	.
.	.	16ccc#\	.	16ccc#\	.	16c#\JJ	.	.	.	.	.	.	.	.	.	.
.	.	.	.	.	.	8qqe/	.	.	.	.	.	.	.	.	.	.
8D\J	.	16ddd\	.	16ddd\	.	16d\LL	.	.	.	.	.	.	.	.	.	.
.	.	16ccc#\JJ	.	16ccc#\JJ	.	16c#\JJ	.	.	.	.	.	.	.	.	.	.
=57	=57	=57	=57	=57	=57	=57	=57	=57	=57	=57	=57	=57	=57	=57	=57	=57
16F#\LL	.	16ddd\LL	.	16ddd\LL	.	16d\LL	.	.	4.ryy	.	.	4.ryy	.	4.ryy	4.ryy	4.ryy
16G\JJ	.	16dd\JJ	.	16dd\JJ	.	16A\JJ	.	.	.	.	.	.	.	.	.	.
!LO:TX:a:t=P:problem=mixed beam	!	!	!	!	!	!	!	!	!	!	!	!	!	!	!	!
8A\L	.	8ff#\L	.	8ff#\L	.	8f#\L	.	.	.	.	.	.	.	.	.	.
8AA/J	.	8ee\J	.	8ee\J	.	8e\J	.	.	.	.	.	.	.	.	.	.
=58	=58	=58	=58	=58	=58	=58	=58	=58	=58	=58	=58	=58	=58	=58	=58	=58
8D\L	.	16dd\LL	.	16ff#\LL	.	8d\	-son	-son	4.ryy	.	.	4.ryy	.	4.ryy	4.ryy	4.ryy
!	!	!LO:MO:mod=16ccc#JJ	!	!LO:MO:mod=16ccc#JJ	!	!	!	!	!	!	!	!	!	!	!	!
.	.	16ccc#\	.	16ccc#\	.	.	.	.	.	.	.	.	.	.	.	.
.	.	.	.	.	.	8qqe/	.	.	.	.	.	.	.	.	.	.
!	!	!LO:MO:mod=16dddLL	!	!LO:MO:mod=16dddLL	!	!	!	!	!	!	!	!	!	!	!	!
8F#\	.	16ddd\	.	16ddd\	.	16d\LL	e-	e-	.	.	.	.	.	.	.	.
.	.	16ccc#\	.	16ccc#\	.	16c#\	.	.	.	.	.	.	.	.	.	.
8D\J	.	16ddd\	.	16ddd\	.	16d\	.	.	.	.	.	.	.	.	.	.
.	.	16ccc#\JJ	.	16ccc#\JJ	.	16c#\JJ	.	.	.	.	.	.	.	.	.	.
!	!	!	!	!	!	!LO:LB:g=original	!	!	!	!	!	!	!	!	!	!
=59	=59	=59	=59	=59	=59	=59	=59	=59	=59	=59	=59	=59	=59	=59	=59	=59
16F#\LL	.	16ddd\LL	.	16ddd\LL	.	16d\LL	.	.	4.ryy	.	.	4.ryy	.	4.ryy	4.ryy	4.ryy
16G\JJ	.	16dd\JJ	.	16dd\JJ	.	16A\JJ	.	.	.	.	.	.	.	.	.	.
!LO:TX:a:t=P:problem=mixed beam	!	!	!	!	!	!	!	!	!	!	!	!	!	!	!	!
8A\L	.	8ff#\L	.	8ff#\L	.	8f#\L	-lei-	-lei-	.	.	.	.	.	.	.	.
8AA/J	.	8ee\J	.	8ee\J	.	8e\J	.	.	.	.	.	.	.	.	.	.
=60	=60	=60	=60	=60	=60	=60	=60	=60	=60	=60	=60	=60	=60	=60	=60	=60
!	!	!	!LO:DY:ed=brack	!	!LO:DY:ed=brack	!	!	!	!	!	!	!	!	!	!	!
!	!	!	!LO:MO:null:mod=f	!	!LO:MO:null:mod=f	!	!	!	!	!	!	!	!	!	!	!
4D\	.	16dd\LL	.	16dd\LL	.	4d\	-son	-son	4.ryy	.	.	4.ryy	.	4.ryy	4.ryy	4.ryy
.	.	16ee\JJ	.	16ee\JJ	.	.	.	.	.	.	.	.	.	.	.	.
.	.	8ff#\L	.	8ff#\L	.	.	.	.	.	.	.	.	.	.	.	.
8r	.	8gg\J	.	8gg\J	.	8r	.	.	.	.	.	.	.	.	.	.
=61	=61	=61	=61	=61	=61	=61	=61	=61	=61	=61	=61	=61	=61	=61	=61	=61
!	!LO:DY:a:t=for	!	!	!	!	!	!	!	!	!	!	!	!	!	!	!
!	!	!	!	!	!	!LO:N:vis=00	!	!	!	!	!	!	!	!	!	!
16D\LL	f	16aa\LL	.	16aa\LL	.	1.r	.	.	4.ryy	.	.	4.ryy	.	4.ryy	4.ryy	4.ryy
16E\JJ	.	16ccc#\JJ	.	16ccc#\JJ	.	.	.	.	.	.	.	.	.	.	.	.
8F#\L	.	4ddd\	.	4ddd\	.	.	.	.	.	.	.	.	.	.	.	.
8D\J	.	.	.	.	.	.	.	.	.	.	.	.	.	.	.	.
=62	=62	=62	=62	=62	=62	=62	=62	=62	=62	=62	=62	=62	=62	=62	=62	=62
!LO:TX:a:t=P:problem=mixed beam	!	!	!	!	!	!	!	!	!	!	!	!	!	!	!	!
8G\L	.	8bb\L	.	8bb\L	.	.	.	.	4.ryy	.	.	4.ryy	.	4.ryy	4.ryy	4.ryy
8A\	.	8aa\	.	8aa\	.	.	.	.	.	.	.	.	.	.	.	.
8AA/J	.	8gg\J	.	8gg\J	.	.	.	.	.	.	.	.	.	.	.	.
=63	=63	=63	=63	=63	=63	=63	=63	=63	=63	=63	=63	=63	=63	=63	=63	=63
8D\L	.	16ff#\LL	.	16ff#\LL	.	.	.	.	4.ryy	.	.	4.ryy	.	4.ryy	4.ryy	4.ryy
.	.	16ee\JJ	.	16ee\JJ	.	.	.	.	.	.	.	.	.	.	.	.
8F#\	.	4dd\	.	4dd\	.	.	.	.	.	.	.	.	.	.	.	.
8D\J	.	.	.	.	.	.	.	.	.	.	.	.	.	.	.	.
=64	=64	=64	=64	=64	=64	=64	=64	=64	=64	=64	=64	=64	=64	=64	=64	=64
8A\L	.	16ee\LL	.	16ee\LL	.	.	.	.	4.ryy	.	.	4.ryy	.	4.ryy	4.ryy	4.ryy
.	.	16ff#\JJ	.	16ff#\JJ	.	.	.	.	.	.	.	.	.	.	.	.
8c#\	.	4gg\	.	4gg\	.	.	.	.	.	.	.	.	.	.	.	.
8A\J	.	.	.	.	.	.	.	.	.	.	.	.	.	.	.	.
!	!	!	!	!LO:LB:g=original	!	!	!	!	!	!	!	!	!	!	!	!
=65	=65	=65	=65	=65	=65	=65	=65	=65	=65	=65	=65	=65	=65	=65	=65	=65
!	!	!	!	!	!	!LO:N:vis=00	!	!	!	!	!	!	!	!	!	!
8d\L	.	16ff#\LL	.	16ff#\LL	.	1.r	.	.	4.ryy	.	.	4.ryy	.	4.ryy	4.ryy	4.ryy
!	!	!	!	!LO:MO:mod=16eeJ	!	!	!	!	!	!	!	!	!	!	!	!
.	.	16ee\J	.	16ee\JJ	.	.	.	.	.	.	.	.	.	.	.	.
!	!	!	!	!LO:MO:mod=8ddJ	!	!	!	!	!	!	!	!	!	!	!	!
8F#\	.	8dd\J	.	4dd\	.	.	.	.	.	.	.	.	.	.	.	.
!	!	!	!	!LO:MO:null:mod=8r	!	!	!	!	!	!	!	!	!	!	!	!
8A\J	.	8r	.	.	.	.	.	.	.	.	.	.	.	.	.	.
!	!	!LO:LB:g=original	!	!	!	!	!	!	!	!	!	!	!	!	!	!
=66	=66	=66	=66	=66	=66	=66	=66	=66	=66	=66	=66	=66	=66	=66	=66	=66
8D\L	.	16dd\LL	.	16dd\LL	.	.	.	.	4.ryy	.	.	4.ryy	.	4.ryy	4.ryy	4.ryy
!	!	!LO:MO:mod=16ccc#JJ	!	!	!	!	!	!	!	!	!	!	!	!	!	!
.	.	16ccc#\	.	16ccc#\JJ	.	.	.	.	.	.	.	.	.	.	.	.
!	!	!LO:MO:mod=16dddLL	!	!	!	!	!	!	!	!	!	!	!	!	!	!
8F#\	.	16ddd\	.	16ddd\LL	.	.	.	.	.	.	.	.	.	.	.	.
!	!	!	!	!LO:MO:mod=16ccc#	!	!	!	!	!	!	!	!	!	!	!	!
.	.	16ccc#\	.	16ccc#\JJ	.	.	.	.	.	.	.	.	.	.	.	.
!	!	!	!	!LO:MO:mod=16ddd	!	!	!	!	!	!	!	!	!	!	!	!
8D\J	.	16ddd\	.	16ddd\LL	.	.	.	.	.	.	.	.	.	.	.	.
.	.	16ccc#\JJ	.	16ccc#\JJ	.	.	.	.	.	.	.	.	.	.	.	.
=67	=67	=67	=67	=67	=67	=67	=67	=67	=67	=67	=67	=67	=67	=67	=67	=67
16F#\LL	.	16ddd\LL	.	16ddd\LL	.	.	.	.	4.ryy	.	.	4.ryy	.	4.ryy	4.ryy	4.ryy
16G\JJ	.	16dd\JJ	.	16dd\JJ	.	.	.	.	.	.	.	.	.	.	.	.
!LO:TX:a:t=P:problem=mixed beam	!	!	!	!	!	!	!	!	!	!	!	!	!	!	!	!
8A\L	.	8ff#\L	.	8ff#\L	.	.	.	.	.	.	.	.	.	.	.	.
!	!	!LO:SIC:v:s=8eeJ	!	!	!	!	!	!	!	!	!	!	!	!	!	!
8AA/J	.	8dd\J	.	8ee\J	.	.	.	.	.	.	.	.	.	.	.	.
=68	=68	=68	=68	=68	=68	=68	=68	=68	=68	=68	=68	=68	=68	=68	=68	=68
!LO:TX:t=P:problem=w źródle takty 68-69 zapisane jako repetycja taktów 66-67	!	!	!	!	!	!	!	!	!	!	!	!	!	!	!	!
8D\Lyy	.	16dd\LL	.	16dd\LL	.	.	.	.	4.ryy	.	.	4.ryy	.	4.ryy	4.ryy	4.ryy
!	!	!LO:MO:mod=16ccc#JJ	!	!	!	!	!	!	!	!	!	!	!	!	!	!
.	.	16ccc#\	.	16ccc#\JJ	.	.	.	.	.	.	.	.	.	.	.	.
!	!	!LO:MO:mod=16dddLL	!	!	!	!	!	!	!	!	!	!	!	!	!	!
8F#\yy	.	16ddd\	.	16ddd\LL	.	.	.	.	.	.	.	.	.	.	.	.
!	!	!	!	!LO:MO:mod=16ccc#	!	!	!	!	!	!	!	!	!	!	!	!
.	.	16ccc#\	.	16ccc#\JJ	.	.	.	.	.	.	.	.	.	.	.	.
!	!	!	!	!LO:MO:mod=16ddd	!	!	!	!	!	!	!	!	!	!	!	!
8D\Jyy	.	16ddd\	.	16ddd\LL	.	.	.	.	.	.	.	.	.	.	.	.
.	.	16ccc#\JJ	.	16ccc#\JJ	.	.	.	.	.	.	.	.	.	.	.	.
=69	=69	=69	=69	=69	=69	=69	=69	=69	=69	=69	=69	=69	=69	=69	=69	=69
!	!	!	!	!	!	!LO:N:vis=0	!	!	!	!	!	!	!	!	!	!
16F#\LLyy	.	16ddd\LL	.	16ddd\LL	.	2.r	.	.	4.ryy	.	.	4.ryy	.	4.ryy	4.ryy	4.ryy
16G\JJyy	.	16dd\JJ	.	16dd\JJ	.	.	.	.	.	.	.	.	.	.	.	.
!LO:TX:a:t=P:problem=mixed beam	!	!	!	!	!	!	!	!	!	!	!	!	!	!	!	!
8A\Lyy	.	8ff#\L	.	8ff#\L	.	.	.	.	.	.	.	.	.	.	.	.
8AA/Jyy	.	8ee\J	.	8ee\J	.	.	.	.	.	.	.	.	.	.	.	.
=70	=70	=70	=70	=70	=70	=70	=70	=70	=70	=70	=70	=70	=70	=70	=70	=70
8D\L	.	16.dd\LL	.	16.dd\LL	.	.	.	.	4.ryy	.	.	4.ryy	.	4.ryy	4.ryy	4.ryy
.	.	32ffn\JJk	.	32ffn\JJk	.	.	.	.	.	.	.	.	.	.	.	.
8G#X\	.	8.ff\L	.	8.ff\L	.	.	.	.	.	.	.	.	.	.	.	.
8G#\J	.	.	.	.	.	.	.	.	.	.	.	.	.	.	.	.
.	.	32ee\LL	.	32ee\LL	.	.	.	.	.	.	.	.	.	.	.	.
.	.	32dd\JJJ	.	32dd\JJJ	.	.	.	.	.	.	.	.	.	.	.	.
=71	=71	=71	=71	=71	=71	=71	=71	=71	=71	=71	=71	=71	=71	=71	=71	=71
!	!	!	!	!	!	!LO:TX:t=P:problem:brak 2 taktów	!	!	!	!	!	!	!	!	!	!
8A\L	.	16cc#\LL	.	16cc#\LL	.	4.ryy	.	.	4.ryy	.	.	4.ryy	.	4.ryy	4.ryy	4.ryy
.	.	16dd\JJ	.	16dd\JJ	.	.	.	.	.	.	.	.	.	.	.	.
!LO:TX:t=P:problem:mixed beam	!	!	!	!	!	!	!	!	!	!	!	!	!	!	!	!
8A\	.	8f#/L	.	8f#/L	.	.	.	.	.	.	.	.	.	.	.	.
8AA\J	.	8e/J	.	8e/J	.	.	.	.	.	.	.	.	.	.	.	.
=72	=72	=72	=72	=72	=72	=72	=72	=72	=72	=72	=72	=72	=72	=72	=72	=72
4D\	.	4d/	.	4d/	.	4.ryy	.	.	4.ryy	.	.	4.ryy	.	4.ryy	4.ryy	4.ryy
8r	.	8r	.	8r	.	.	.	.	.	.	.	.	.	.	.	.
=73	=73	=73	=73	=73	=73	=73	=73	=73	=73	=73	=73	=73	=73	=73	=73	=73
8r	.	8r	.	8r	.	8d\	Chris-	Chris-	4.ryy	.	.	4.ryy	.	4.ryy	4.ryy	4.ryy
!	!	!	!LO:DY:ed=brack	!	!	!	!	!	!	!	!	!	!	!	!	!
!	!LO:DY:a	!	!LO:MO:null:mod=p	!	!LO:DY:a	!	!	!	!	!	!	!	!	!	!	!
8D\L	p	8a/L	.	8ff#\L	p	4f#\	-ste	-ste	.	.	.	.	.	.	.	.
8D\J	.	8a/J	.	8ff#\J	.	.	.	.	.	.	.	.	.	.	.	.
=74	=74	=74	=74	=74	=74	=74	=74	=74	=74	=74	=74	=74	=74	=74	=74	=74
8A\L	.	8cc#\L	.	8ee\L	.	16e\LL	.	[Chris-	4.ryy	.	.	4.ryy	.	4.ryy	4.ryy	4.ryy
.	.	.	.	.	.	16d\JJ	.	.	.	.	.	.	.	.	.	.
8A\	.	8cc#\	.	8ee\	.	4A\	.	-te]	.	.	.	.	.	.	.	.
8A\J	.	8cc#\J	.	8ee\J	.	.	.	.	.	.	.	.	.	.	.	.
=75	=75	=75	=75	=75	=75	=75	=75	=75	=75	=75	=75	=75	=75	=75	=75	=75
8AA/L	.	16cc#\LL	.	16ee\LL	.	16e\LL	e-	e-	4.ryy	.	.	4.ryy	.	4.ryy	4.ryy	4.ryy
.	.	16dd\JJ	.	16ff#\JJ	.	16f#\JJ	.	.	.	.	.	.	.	.	.	.
8AA/	.	4ee\	.	4gg\	.	4g\	-lei-	-lei-	.	.	.	.	.	.	.	.
8AA/J	.	.	.	.	.	.	.	.	.	.	.	.	.	.	.	.
=76	=76	=76	=76	=76	=76	=76	=76	=76	=76	=76	=76	=76	=76	=76	=76	=76
8D\L	.	8dd\L	.	8ff#\L	.	4f#\	-son	-son	4.ryy	.	.	4.ryy	.	4.ryy	4.ryy	4.ryy
8F#\	.	8a\	.	8ff#\	.	.	.	.	.	.	.	.	.	.	.	.
8D\J	.	8a\J	.	8aa\J	.	8A/	e-	e-	.	.	.	.	.	.	.	.
=77	=77	=77	=77	=77	=77	=77	=77	=77	=77	=77	=77	=77	=77	=77	=77	=77
8G\L	.	8r	.	8r	.	4.B\	-lei-	-lei-	4.ryy	.	.	4.ryy	.	4.ryy	4.ryy	4.ryy
8E\	.	8gg\L	.	8bb\L	.	.	.	.	.	.	.	.	.	.	.	.
8C#\J	.	8gg\J	.	8bb\J	.	.	.	.	.	.	.	.	.	.	.	.
=78	=78	=78	=78	=78	=78	=78	=78	=78	=78	=78	=78	=78	=78	=78	=78	=78
8F#\L	.	8r	.	8r	.	4.A\	.	.	4.ryy	.	.	4.ryy	.	4.ryy	4.ryy	4.ryy
8D\	.	8ff#\L	.	8aa\L	.	.	.	.	.	.	.	.	.	.	.	.
8BB\J	.	8ff#\J	.	8aa\J	.	.	.	.	.	.	.	.	.	.	.	.
=79	=79	=79	=79	=79	=79	=79	=79	=79	=79	=79	=79	=79	=79	=79	=79	=79
8E\L	.	8r	.	8r	.	4.G/	.	.	4.ryy	.	.	4.ryy	.	4.ryy	4.ryy	4.ryy
8C#\	.	8ee\L	.	8gg\L	.	.	.	.	.	.	.	.	.	.	.	.
8AA\J	.	8ee\J	.	8gg\J	.	.	.	.	.	.	.	.	.	.	.	.
=80	=80	=80	=80	=80	=80	=80	=80	=80	=80	=80	=80	=80	=80	=80	=80	=80
8D\L	.	8r	.	8r	.	8F#/	-son	-son	4.ryy	.	.	4.ryy	.	4.ryy	4.ryy	4.ryy
8D\	.	8a/L	.	8ff#\L	.	16d\LL	Chris-	Chris-	.	.	.	.	.	.	.	.
.	.	.	.	.	.	16e\JJ	.	.	.	.	.	.	.	.	.	.
8D\J	.	8a/J	.	8ff#\J	.	16f#\LL	-te	-te	.	.	.	.	.	.	.	.
.	.	.	.	.	.	16g\JJ	.	.	.	.	.	.	.	.	.	.
=81	=81	=81	=81	=81	=81	=81	=81	=81	=81	=81	=81	=81	=81	=81	=81	=81
8D\L	.	8a/L	.	8ff#\L	.	16a\LL	e-	e-	4.ryy	.	.	4.ryy	.	4.ryy	4.ryy	4.ryy
.	.	.	.	.	.	16g\JJ	.	.	.	.	.	.	.	.	.	.
8D\	.	8a/	.	8ff#\	.	16f#\LL	-lei-	-lei-	.	.	.	.	.	.	.	.
.	.	.	.	.	.	16e\	.	.	.	.	.	.	.	.	.	.
8D\J	.	8a/J	.	8ff#\J	.	16d\	.	.	.	.	.	.	.	.	.	.
.	.	.	.	.	.	16cn\JJ	.	.	.	.	.	.	.	.	.	.
!	!	!	!	!LO:LB:g=original	!	!	!	!	!	!	!	!	!	!	!	!
=82	=82	=82	=82	=82	=82	=82	=82	=82	=82	=82	=82	=82	=82	=82	=82	=82
8G\L	.	8b\L	.	8gg\L	.	8B\	-son	-son	4.ryy	.	.	4.ryy	.	4.ryy	4.ryy	4.ryy
8G\	.	8b\	.	8ee\	.	16e\LL	Chri-	Chri-	.	.	.	.	.	.	.	.
.	.	.	.	.	.	16f#\JJ	.	.	.	.	.	.	.	.	.	.
8G\J	.	8b\J	.	8ee\J	.	16g\LL	-ste	-ste	.	.	.	.	.	.	.	.
.	.	.	.	.	.	16a\JJ	.	.	.	.	.	.	.	.	.	.
!	!	!	!	!	!	!LO:LB:g=original	!	!	!	!	!	!	!	!	!	!
=83	=83	=83	=83	=83	=83	=83	=83	=83	=83	=83	=83	=83	=83	=83	=83	=83
8G\L	.	8b\L	.	8ee\L	.	16b\LL	e-	e-	4.ryy	.	.	4.ryy	.	4.ryy	4.ryy	4.ryy
.	.	.	.	.	.	16a\JJ	.	.	.	.	.	.	.	.	.	.
8G\	.	8b\	.	8ee\	.	16g\LL	-lei-	-lei-	.	.	.	.	.	.	.	.
.	.	.	.	.	.	16f#\	.	.	.	.	.	.	.	.	.	.
8G\J	.	8b\J	.	8ee\J	.	16e\	.	.	.	.	.	.	.	.	.	.
.	.	.	.	.	.	16d\JJ	.	.	.	.	.	.	.	.	.	.
!	!	!LO:LB:g=original	!	!	!	!	!	!	!	!	!	!	!	!	!	!
=84	=84	=84	=84	=84	=84	=84	=84	=84	=84	=84	=84	=84	=84	=84	=84	=84
8A\L	.	8cc#\L	.	8ee\L	.	4c#\	.	.	4.ryy	.	.	4.ryy	.	4.ryy	4.ryy	4.ryy
8G\	.	8cc#\	.	8ee\	.	.	.	.	.	.	.	.	.	.	.	.
8F#\J	.	8dd\J	.	8ff#\J	.	8d\	-son	-son	.	.	.	.	.	.	.	.
=85	=85	=85	=85	=85	=85	=85	=85	=85	=85	=85	=85	=85	=85	=85	=85	=85
8G\L	.	8ee\	.	8gg\	.	8e\	e-	e-	4.ryy	.	.	4.ryy	.	4.ryy	4.ryy	4.ryy
!LO:TX:t=P:problem:mixed beam	!	!	!	!	!	!	!	!	!	!	!	!	!	!	!	!
.	.	8qqdd/	.	8qqff#/	.	8qqd/	.	.	.	.	.	.	.	.	.	.
8A\	.	4cc#\	.	4ee\	.	4c#\	-lei-	-lei-	.	.	.	.	.	.	.	.
8AA\J	.	.	.	.	.	.	.	.	.	.	.	.	.	.	.	.
=86	=86	=86	=86	=86	=86	=86	=86	=86	=86	=86	=86	=86	=86	=86	=86	=86
8D\L	.	8dd\L	.	8ff#\L	.	4d\	-son	-son	4.ryy	.	.	4.ryy	.	4.ryy	4.ryy	4.ryy
8D\	.	8dd\	.	8ff#\	.	.	.	.	.	.	.	.	.	.	.	.
8BB\J	.	8dd\J	.	8ff#\J	.	8f#\	e-	e-	.	.	.	.	.	.	.	.
=87	=87	=87	=87	=87	=87	=87	=87	=87	=87	=87	=87	=87	=87	=87	=87	=87
!	!	!	!	!	!	!	!	!	!	!	!	!	!	!	!	!
8F#\L	.	8r	.	8r	.	4.A#X\	.	.	4.ryy	.	.	4.ryy	.	4.ryy	4.ryy	4.ryy
8F#\	.	8a#X/L	.	8cc#\L	.	.	.	.	.	.	.	.	.	.	.	.
8F#\J	.	8a#/J	.	8cc#\J	.	.	.	.	.	.	.	.	.	.	.	.
=88	=88	=88	=88	=88	=88	=88	=88	=88	=88	=88	=88	=88	=88	=88	=88	=88
8F#\L	.	8r	.	8r	.	4.B\	.	.	4.ryy	.	.	4.ryy	.	4.ryy	4.ryy	4.ryy
8F#\	.	8b\L	.	8dd\L	.	.	.	.	.	.	.	.	.	.	.	.
8F#\J	.	8b\J	.	8dd\J	.	.	.	.	.	.	.	.	.	.	.	.
=89	=89	=89	=89	=89	=89	=89	=89	=89	=89	=89	=89	=89	=89	=89	=89	=89
!LO:TX:t=P:problem:mixed beam	!	!	!	!	!	!	!	!	!	!	!	!	!	!	!	!
8F#\L	.	8r	.	8r	.	4e\	.	.	4.ryy	.	.	4.ryy	.	4.ryy	4.ryy	4.ryy
8AA#X\	.	8cc#\L	.	8ee\L	.	.	.	.	.	.	.	.	.	.	.	.
8BB\J	.	8b\J	.	8dd\J	.	8d\	.	.	.	.	.	.	.	.	.	.
=90	=90	=90	=90	=90	=90	=90	=90	=90	=90	=90	=90	=90	=90	=90	=90	=90
8F#\L	.	8b\L	.	8dd\L	.	8d\	-[lei]-	-[lei]-	4.ryy	.	.	4.ryy	.	4.ryy	4.ryy	4.ryy
16F#\L	.	8a#X\	.	8cc#\	.	8c#\	-son	-son	.	.	.	.	.	.	.	.
16E\	.	.	.	.	.	.	.	.	.	.	.	.	.	.	.	.
16D\	.	8a#\J	.	8cc#\J	.	8r	.	.	.	.	.	.	.	.	.	.
16C#\JJ	.	.	.	.	.	.	.	.	.	.	.	.	.	.	.	.
=91	=91	=91	=91	=91	=91	=91	=91	=91	=91	=91	=91	=91	=91	=91	=91	=91
!	!	!LO:TX:t=P:problem:mixed beam	!	!LO:TX:t=P:problem:mixed beam	!	!	!	!	!	!	!	!	!	!	!	!
8BB/L	.	16b/LL	.	16b/LL	.	8B\	Chris-	Chris-	4.ryy	.	.	4.ryy	.	4.ryy	4.ryy	4.ryy
.	.	16aa#X\JJ	.	16aa#X\JJ	.	.	.	.	.	.	.	.	.	.	.	.
8D/	.	16bb\LL	.	16bb\LL	.	4B\	-te	-te	.	.	.	.	.	.	.	.
.	.	16aa#\	.	16aa#\	.	.	.	.	.	.	.	.	.	.	.	.
8BB/J	.	16bb\	.	16bb\	.	.	.	.	.	.	.	.	.	.	.	.
.	.	16aa#\JJ	.	16aa#\JJ	.	.	.	.	.	.	.	.	.	.	.	.
=92	=92	=92	=92	=92	=92	=92	=92	=92	=92	=92	=92	=92	=92	=92	=92	=92
!	!	!LO:TX:t=P:problem:mixed beam	!	!LO:TX:t=P:problem:mixed beam	!	!	!	!	!	!	!	!	!	!	!	!
16D\LL	.	16bb\LL	.	16bb\LL	.	16B\LL	e-	e-	4.ryy	.	.	4.ryy	.	4.ryy	4.ryy	4.ryy
16E\JJ	.	16b/JJ	.	16b/JJ	.	16e\JJ	.	.	.	.	.	.	.	.	.	.
!LO:TX:t=P:problem:mixed beam	!	!	!	!	!	!	!	!	!	!	!	!	!	!	!	!
8F#\L	.	8dd\L	.	8dd\L	.	8d\L	-lei-	-lei-	.	.	.	.	.	.	.	.
8FF#\J	.	8cc#\J	.	8cc#\J	.	8c#\J	.	.	.	.	.	.	.	.	.	.
=93	=93	=93	=93	=93	=93	=93	=93	=93	=93	=93	=93	=93	=93	=93	=93	=93
!	!	!LO:TX:t=P:problem:mixed beam	!	!LO:TX:t=P:problem:mixed beam	!	!	!	!	!	!	!	!	!	!	!	!
8BB/L	.	16b/LL	.	16b/LL	.	8B\	-son	-son	4.ryy	.	.	4.ryy	.	4.ryy	4.ryy	4.ryy
.	.	16aa#X\JJ	.	16aa#X\JJ	.	.	.	.	.	.	.	.	.	.	.	.
8D/	.	16bb\LL	.	16bb\LL	.	4B\	e-	e-	.	.	.	.	.	.	.	.
.	.	16aa#\	.	16aa#\	.	.	.	.	.	.	.	.	.	.	.	.
8BB/J	.	16bb\	.	16bb\	.	.	.	.	.	.	.	.	.	.	.	.
.	.	16aa#\JJ	.	16aa#\JJ	.	.	.	.	.	.	.	.	.	.	.	.
=94	=94	=94	=94	=94	=94	=94	=94	=94	=94	=94	=94	=94	=94	=94	=94	=94
!	!	!LO:TX:t=P:problem:mixed beam	!	!LO:TX:t=P:problem:mixed beam	!	!	!	!	!	!	!	!	!	!	!	!
16D\LL	.	16bb\LL	.	16bb\LL	.	16B\LL	-lei-	-lei-	4.ryy	.	.	4.ryy	.	4.ryy	4.ryy	4.ryy
16E\JJ	.	16b/JJ	.	16b/JJ	.	16e\JJ	.	.	.	.	.	.	.	.	.	.
!LO:TX:t=P:problem:mixed beam	!	!	!	!	!	!	!	!	!	!	!	!	!	!	!	!
8F#/L	.	8dd\L	.	8dd\L	.	8d\L	.	.	.	.	.	.	.	.	.	.
8FF#/J	.	8cc#\J	.	8cc#\J	.	8c#\J	.	.	.	.	.	.	.	.	.	.
=95	=95	=95	=95	=95	=95	=95	=95	=95	=95	=95	=95	=95	=95	=95	=95	=95
8BB/L	.	8b/L	.	16b\LL	.	16B\	-son	-son	4.r	.	.	4.r	.	4.r	4.r	4.r
.	.	.	.	16dd\JJ	.	16d\	e-	e-	.	.	.	.	.	.	.	.
!LO:TX:t=P:problem:mixed beam	!	!	!	!	!	!	!	!	!	!	!	!	!	!	!	!
8E#X/	.	8g#X/	.	8.dd\L	.	8d\L	-lei-	-lei-	.	.	.	.	.	.	.	.
8E#/J	.	8g#/J	.	.	.	16c#\L	.	.	.	.	.	.	.	.	.	.
.	.	.	.	32cc#\LL	.	16B\JJ	.	.	.	.	.	.	.	.	.	.
.	.	.	.	32b\JJJ	.	.	.	.	.	.	.	.	.	.	.	.
=96	=96	=96	=96	=96	=96	=96	=96	=96	=96	=96	=96	=96	=96	=96	=96	=96
8F#\L	.	16a#X/LL	.	16a#X/LL	.	16A#X\	-son	-son	4.r	.	.	4.r	.	4.r	4.r	4.r
.	.	16b/JJ	.	16b/JJ	.	16B\	e-	e-	.	.	.	.	.	.	.	.
8F#\	.	8d/L	.	8d/L	.	8d\L	-lei-	-lei-	.	.	.	.	.	.	.	.
!LO:TX:a:t=Da Capo:mod=	!	!LO:TX:b:t=Da Capo:mod=	!	!LO:TX:b:t=Da Capo:mod=	!	!	!	!	!	!	!	!	!	!	!	!
8F#\J	.	8c#/J	.	8c#/J	.	8c#\J	.	.	.	.	.	.	.	.	.	.
=97	=97	=97	=97	=97	=97	=97	=97	=97	=97	=97	=97	=97	=97	=97	=97	=97
!	!LO:DY:ed=brack	!	!LO:DY:ed=brack	!	!LO:DY:ed=brack	!	!	!	!	!	!	!	!	!	!	!
!	!LO:MO:null:mod=f	!	!LO:MO:null:mod=f	!	!LO:MO:null:mod=f	!LO:TX:a:t=P:problem:ze względu na ostatnią nutę w T Da capo rozpisane	!	!	!	!	!	!	!	!	!	!
4BB/yy	.	16b\LLyy	.	16b\LLyy	.	4B	-son	-son	4.ryy	.	.	4.ryy	.	4.ryy	4.ryy	4.ryy
!	!	!LO:MO:mod=16cc#JJ	!	!	!	!	!	!	!	!	!	!	!	!	!	!
.	.	16cc#\yy	.	16cc#\JJyy	.	.	.	.	.	.	.	.	.	.	.	.
!	!	!LO:MO:mod=8ddL	!	!	!	!	!	!	!	!	!	!	!	!	!	!
.	.	8dd\yy	.	8dd\Lyy	.	.	.	.	.	.	.	.	.	.	.	.
!	!	!LO:MO:mod=8eeJ	!	!	!	!	!	!	!	!	!	!	!	!	!	!
8ryy	.	8ee\JJyy	.	8ee\Jyy	.	8r	.	.	.	.	.	.	.	.	.	.
=98	=98	=98	=98	=98	=98	=98	=98	=98	=98	=98	=98	=98	=98	=98	=98	=98
!	!	!	!	!	!	!LO:N:vis=00	!	!	!	!	!	!	!	!	!	!
16BB/LLyy	.	16ff#\LLyy	.	16ff#\LLyy	.	1.r	.	.	4.ryy	.	.	4.ryy	.	4.ryy	4.ryy	4.ryy
16C#/JJyy	.	16aa#X\JJyy	.	16aa#X\JJyy	.	.	.	.	.	.	.	.	.	.	.	.
!	!	!LO:MO:null:mod=8qqaa#@	!	!	!	!	!	!	!	!	!	!	!	!	!	!
.	.	.	.	8qqaa#/yy	.	.	.	.	.	.	.	.	.	.	.	.
8D\Lyy	.	4bb\yy	.	4bb\yy	.	.	.	.	.	.	.	.	.	.	.	.
8BB\Jyy	.	.	.	.	.	.	.	.	.	.	.	.	.	.	.	.
=99	=99	=99	=99	=99	=99	=99	=99	=99	=99	=99	=99	=99	=99	=99	=99	=99
!LO:TX:a:t=P:problem=mixed beam	!	!	!	!	!	!	!	!	!	!	!	!	!	!	!	!
8E\Lyy	.	8gg\Lyy	.	8gg\Lyy	.	.	.	.	4.ryy	.	.	4.ryy	.	4.ryy	4.ryy	4.ryy
8F#\yy	.	8ff#\yy	.	8ff#\yy	.	.	.	.	.	.	.	.	.	.	.	.
8FF#/Jyy	.	8ee\Jyy	.	8ee\Jyy	.	.	.	.	.	.	.	.	.	.	.	.
=100	=100	=100	=100	=100	=100	=100	=100	=100	=100	=100	=100	=100	=100	=100	=100	=100
8BB/Lyy	.	16dd\LLyy	.	16dd\LLyy	.	.	.	.	4.ryy	.	.	4.ryy	.	4.ryy	4.ryy	4.ryy
.	.	16cc#\JJyy	.	16cc#\JJyy	.	.	.	.	.	.	.	.	.	.	.	.
8D/yy	.	4b\yy	.	4b\yy	.	.	.	.	.	.	.	.	.	.	.	.
8BB/Jyy	.	.	.	.	.	.	.	.	.	.	.	.	.	.	.	.
=101	=101	=101	=101	=101	=101	=101	=101	=101	=101	=101	=101	=101	=101	=101	=101	=101
!	!	!	!	!	!	!	!	!	!	!	!	!	!	!	!	!
8F#\Lyy	.	16cc#\LLyy	.	16cc#\LLyy	.	.	.	.	4.ryy	.	.	4.ryy	.	4.ryy	4.ryy	4.ryy
.	.	16dd\JJyy	.	16dd\JJyy	.	.	.	.	.	.	.	.	.	.	.	.
8A#X\yy	.	4ee\yy	.	4ee\yy	.	.	.	.	.	.	.	.	.	.	.	.
8F#\Jyy	.	.	.	.	.	.	.	.	.	.	.	.	.	.	.	.
=102	=102	=102	=102	=102	=102	=102	=102	=102	=102	=102	=102	=102	=102	=102	=102	=102
!	!	!	!	!	!	!LO:N:vis=00	!	!	!	!	!	!	!	!	!	!
8B\Lyy	.	16dd\LLyy	.	16dd\LLyy	.	1.r	.	.	4.ryy	.	.	4.ryy	.	4.ryy	4.ryy	4.ryy
!	!	!	!	!LO:MO:mod=16cc#J	!	!	!	!	!	!	!	!	!	!	!	!
.	.	16cc#\Jyy	.	16cc#\JJyy	.	.	.	.	.	.	.	.	.	.	.	.
!	!	!	!	!LO:MO:mod=8bJ	!	!	!	!	!	!	!	!	!	!	!	!
8D\yy	.	8b\Jyy	.	8b\yy	.	.	.	.	.	.	.	.	.	.	.	.
8F#\Jyy	.	8ryy	.	8ryy	.	.	.	.	.	.	.	.	.	.	.	.
=103	=103	=103	=103	=103	=103	=103	=103	=103	=103	=103	=103	=103	=103	=103	=103	=103
4BB/yy	.	16b\LLyy	.	16b\LLyy	.	.	.	.	4.ryy	.	.	4.ryy	.	4.ryy	4.ryy	4.ryy
.	.	16cc#\yy	.	16cc#\yy	.	.	.	.	.	.	.	.	.	.	.	.
!	!	!	!	!LO:SIC:v:s=16dd#	!	!	!	!	!	!	!	!	!	!	!	!
.	.	16dd#X\yy	.	16dd\yy	.	.	.	.	.	.	.	.	.	.	.	.
.	.	16ee\yy	.	16ee\yy	.	.	.	.	.	.	.	.	.	.	.	.
8ryy	.	16ff#\yy	.	16ff#\yy	.	.	.	.	.	.	.	.	.	.	.	.
.	.	16gg\JJyy	.	16gg\JJyy	.	.	.	.	.	.	.	.	.	.	.	.
=104	=104	=104	=104	=104	=104	=104	=104	=104	=104	=104	=104	=104	=104	=104	=104	=104
!LO:TX:a:t=P:problem=mixed beam	!	!	!	!	!	!	!	!	!	!	!	!	!	!	!	!
8BB/Lyy	.	4.aa\yy	.	4.aa\yy	.	.	.	.	4.ryy	.	.	4.ryy	.	4.ryy	4.ryy	4.ryy
8F#\yy	.	.	.	.	.	.	.	.	.	.	.	.	.	.	.	.
8E\Jyy	.	.	.	.	.	.	.	.	.	.	.	.	.	.	.	.
=105	=105	=105	=105	=105	=105	=105	=105	=105	=105	=105	=105	=105	=105	=105	=105	=105
8D#X\Lyy	.	8cccn\Lyy	.	8cccn\Lyy	.	.	.	.	4.ryy	.	.	4.ryy	.	4.ryy	4.ryy	4.ryy
8BB\yy	.	8bb\yy	.	8bb\yy	.	.	.	.	.	.	.	.	.	.	.	.
8D#\Jyy	.	8aa\Jyy	.	8aa\Jyy	.	.	.	.	.	.	.	.	.	.	.	.
=106	=106	=106	=106	=106	=106	=106	=106	=106	=106	=106	=106	=106	=106	=106	=106	=106
!	!	!	!	!	!	!LO:N:vis=00	!	!	!	!	!	!	!	!	!	!
8E\Lyy	.	16gg\LLyy	.	16gg\LLyy	.	1.r	.	.	4.ryy	.	.	4.ryy	.	4.ryy	4.ryy	4.ryy
.	.	16ff#\Jyy	.	16ff#\Jyy	.	.	.	.	.	.	.	.	.	.	.	.
8G\yy	.	8ee\Jyy	.	8ee\Jyy	.	.	.	.	.	.	.	.	.	.	.	.
8E\Jyy	.	8ryy	.	8ryy	.	.	.	.	.	.	.	.	.	.	.	.
=107	=107	=107	=107	=107	=107	=107	=107	=107	=107	=107	=107	=107	=107	=107	=107	=107
4AA/yy	.	16a\LLyy	.	16a\LLyy	.	.	.	.	4.ryy	.	.	4.ryy	.	4.ryy	4.ryy	4.ryy
.	.	16b\yy	.	16b\yy	.	.	.	.	.	.	.	.	.	.	.	.
.	.	16cc#\yy	.	16cc#\yy	.	.	.	.	.	.	.	.	.	.	.	.
.	.	16dd\yy	.	16dd\yy	.	.	.	.	.	.	.	.	.	.	.	.
8ryy	.	16ee\yy	.	16ee\yy	.	.	.	.	.	.	.	.	.	.	.	.
.	.	16ff#\JJyy	.	16ff#\JJyy	.	.	.	.	.	.	.	.	.	.	.	.
=108	=108	=108	=108	=108	=108	=108	=108	=108	=108	=108	=108	=108	=108	=108	=108	=108
!LO:TX:a:t=P:problem=mixed beam	!	!	!	!	!	!	!	!	!	!	!	!	!	!	!	!
!	!	!	!	!	!	!	!	!	!	!	!	!	!	!	!	!
8AA/Lyy	.	4.gg\yy	.	4.gg\yy	.	.	.	.	4.ryy	.	.	4.ryy	.	4.ryy	4.ryy	4.ryy
8E\yy	.	.	.	.	.	.	.	.	.	.	.	.	.	.	.	.
8D\Jyy	.	.	.	.	.	.	.	.	.	.	.	.	.	.	.	.
=109	=109	=109	=109	=109	=109	=109	=109	=109	=109	=109	=109	=109	=109	=109	=109	=109
!	!	!	!	!	!	!	!	!	!	!	!	!	!	!	!	!
8C#/Lyy	.	8bb\Lyy	.	8bb\Lyy	.	.	.	.	4.ryy	.	.	4.ryy	.	4.ryy	4.ryy	4.ryy
8AA/yy	.	8aa\yy	.	8aa\yy	.	.	.	.	.	.	.	.	.	.	.	.
8C#/Jyy	.	8gg\Jyy	.	8gg\Jyy	.	.	.	.	.	.	.	.	.	.	.	.
!LO:LB:g=original	!	!	!	!	!	!	!	!	!	!	!	!	!	!	!	!
=110	=110	=110	=110	=110	=110	=110	=110	=110	=110	=110	=110	=110	=110	=110	=110	=110
!	!	!	!	!	!	!LO:N:vis=00	!	!	!	!	!	!	!	!	!	!
8D\Lyy	.	16ff#\LLyy	.	16ff#\LLyy	.	1.r	.	.	4.ryy	.	.	4.ryy	.	4.ryy	4.ryy	4.ryy
.	.	16ee\Jyy	.	16ee\Jyy	.	.	.	.	.	.	.	.	.	.	.	.
8F#\yy	.	8dd\yy	.	8dd\yy	.	.	.	.	.	.	.	.	.	.	.	.
8D\Jyy	.	8ff#\Jyy	.	8ff#\Jyy	.	.	.	.	.	.	.	.	.	.	.	.
!	!	!LO:LB:g=original	!	!	!	!	!	!	!	!	!	!	!	!	!	!
=111	=111	=111	=111	=111	=111	=111	=111	=111	=111	=111	=111	=111	=111	=111	=111	=111
!LO:TX:a:t=P:problem=mixed beam	!	!	!	!	!	!	!	!	!	!	!	!	!	!	!	!
8BB/Lyy	.	8ff#\Lyy	.	8ff#\Lyy	.	.	.	.	4.ryy	.	.	4.ryy	.	4.ryy	4.ryy	4.ryy
8G\yy	.	16ee\Lyy	.	16ee\Lyy	.	.	.	.	.	.	.	.	.	.	.	.
.	.	16dd\yy	.	16dd\yy	.	.	.	.	.	.	.	.	.	.	.	.
8E\Jyy	.	16cc#\yy	.	16cc#\yy	.	.	.	.	.	.	.	.	.	.	.	.
.	.	16b\JJyy	.	16b\JJyy	.	.	.	.	.	.	.	.	.	.	.	.
=112	=112	=112	=112	=112	=112	=112	=112	=112	=112	=112	=112	=112	=112	=112	=112	=112
8F#\Lyy	.	16a#X/LLyy	.	16a#X/LLyy	.	.	.	.	4.ryy	.	.	4.ryy	.	4.ryy	4.ryy	4.ryy
.	.	16g#X/Jyy	.	16g#X/Jyy	.	.	.	.	.	.	.	.	.	.	.	.
16F#\Lyy	.	8f#/Jyy	.	8f#/Jyy	.	.	.	.	.	.	.	.	.	.	.	.
16E\yy	.	.	.	.	.	.	.	.	.	.	.	.	.	.	.	.
16D\yy	.	8ryy	.	8ryy	.	.	.	.	.	.	.	.	.	.	.	.
16C#\JJyy	.	.	.	.	.	.	.	.	.	.	.	.	.	.	.	.
!	!	!	!	!LO:LB:g=original	!	!	!	!	!	!	!	!	!	!	!	!
=113	=113	=113	=113	=113	=113	=113	=113	=113	=113	=113	=113	=113	=113	=113	=113	=113
!	!	!LO:TX:a:t=P:problem=mixed beam	!	!LO:TX:a:t=P:problem=mixed beam	!	!	!	!	!	!	!	!	!	!	!	!
!	!	!	!	!	!	!	!	!	!	!	!	!	!	!	!	!
8BB/Lyy	.	16b/LLyy	.	16b/LLyy	.	.	.	.	4.ryy	.	.	4.ryy	.	4.ryy	4.ryy	4.ryy
.	.	16aa#\JJyy	.	16aa#X\JJyy	.	.	.	.	.	.	.	.	.	.	.	.
!	!	!	!	!LO:TX:a:t=bis:mod=	!	!	!	!	!	!	!	!	!	!	!	!
8D/yy	.	16bb\LLyy	.	16bb\LLyy	.	.	.	.	.	.	.	.	.	.	.	.
.	.	16aa#\yy	.	16aa#\yy	.	.	.	.	.	.	.	.	.	.	.	.
8BB/Jyy	.	16bb\yy	.	16bb\yy	.	.	.	.	.	.	.	.	.	.	.	.
.	.	16aa#\JJyy	.	16aa#\JJyy	.	.	.	.	.	.	.	.	.	.	.	.
=114	=114	=114	=114	=114	=114	=114	=114	=114	=114	=114	=114	=114	=114	=114	=114	=114
!	!	!LO:TX:a:t=P:problem=mixed beam	!	!LO:TX:a:t=P:problem=mixed beam	!	!LO:N:vis=00	!	!	!	!	!	!	!	!	!	!
16D\LLyy	.	16bb\LLyy	.	16bb\LLyy	.	1.r	.	.	4.ryy	.	.	4.ryy	.	4.ryy	4.ryy	4.ryy
16E\JJyy	.	16b/JJyy	.	16b/JJyy	.	.	.	.	.	.	.	.	.	.	.	.
!LO:TX:a:t=P:problem=mixed beam	!	!	!	!	!	!	!	!	!	!	!	!	!	!	!	!
8F#\Lyy	.	8dd\Lyy	.	8dd\Lyy	.	.	.	.	.	.	.	.	.	.	.	.
8FF#/Jyy	.	8cc#\Jyy	.	8cc#\Jyy	.	.	.	.	.	.	.	.	.	.	.	.
=115	=115	=115	=115	=115	=115	=115	=115	=115	=115	=115	=115	=115	=115	=115	=115	=115
!	!	!LO:TX:a:t=P:problem=mixed beam	!	!LO:TX:a:t=P:problem=mixed beam	!	!	!	!	!	!	!	!	!	!	!	!
!LO:TX:t=P:problem=w źródle takty 34-35 zapisane jako repetycja taktów 32-33	!	!	!	!LO:TX:t=P:problem=w źródle takty 34-35 zapisane jako repetycja taktów 32-33	!	!	!	!	!	!	!	!	!	!	!	!
8BB/Lyy	.	16b/LLyy	.	16b/LLyy	.	.	.	.	4.ryy	.	.	4.ryy	.	4.ryy	4.ryy	4.ryy
.	.	16aa#\JJyy	.	16aa#X\JJyy	.	.	.	.	.	.	.	.	.	.	.	.
8D/yy	.	16bb\LLyy	.	16bb\LLyy	.	.	.	.	.	.	.	.	.	.	.	.
.	.	16aa#\yy	.	16aa#\yy	.	.	.	.	.	.	.	.	.	.	.	.
8BB/Jyy	.	16bb\yy	.	16bb\yy	.	.	.	.	.	.	.	.	.	.	.	.
.	.	16aa#\JJyy	.	16aa#\JJyy	.	.	.	.	.	.	.	.	.	.	.	.
=116	=116	=116	=116	=116	=116	=116	=116	=116	=116	=116	=116	=116	=116	=116	=116	=116
!	!	!LO:TX:a:t=P:problem=mixed beam	!	!LO:TX:a:t=P:problem=mixed beam	!	!	!	!	!	!	!	!	!	!	!	!
16D\LLyy	.	16bb\LLyy	.	16bb\LLyy	.	.	.	.	4.ryy	.	.	4.ryy	.	4.ryy	4.ryy	4.ryy
16E\JJyy	.	16b/JJyy	.	16b/JJyy	.	.	.	.	.	.	.	.	.	.	.	.
!LO:TX:a:t=P:problem=mixed beam	!	!	!	!	!	!	!	!	!	!	!	!	!	!	!	!
8F#\Lyy	.	8dd\Lyy	.	8dd\Lyy	.	.	.	.	.	.	.	.	.	.	.	.
8FF#/Jyy	.	8cc#\Jyy	.	8cc#\Jyy	.	.	.	.	.	.	.	.	.	.	.	.
=117	=117	=117	=117	=117	=117	=117	=117	=117	=117	=117	=117	=117	=117	=117	=117	=117
!LO:TX:a:t=P:problem=mixed beam	!	!	!	!	!	!	!	!	!	!	!	!	!	!	!	!
!	!	!	!	!	!	!	!	!	!	!	!	!	!	!	!	!
8BB/Lyy	.	16b\LLyy	.	16b\LLyy	.	.	.	.	4.ryy	.	.	4.ryy	.	4.ryy	4.ryy	4.ryy
.	.	16dd\JJyy	.	16dd\JJyy	.	.	.	.	.	.	.	.	.	.	.	.
!	!	!LO:MO:mod=8ddTL	!	!	!	!	!	!	!	!	!	!	!	!	!	!
8E#X\yy	.	8dd\Lyy	.	8ddT\Lyy	.	.	.	.	.	.	.	.	.	.	.	.
8E#\Jyy	.	16cc#\Lyy	.	16cc#\Lyy	.	.	.	.	.	.	.	.	.	.	.	.
.	.	16b\JJyy	.	16b\JJyy	.	.	.	.	.	.	.	.	.	.	.	.
=118	=118	=118	=118	=118	=118	=118	=118	=118	=118	=118	=118	=118	=118	=118	=118	=118
!	!	!	!	!	!	!LO:N:vis=0	!	!	!	!	!	!	!	!	!	!
8F#\Lyy	.	16a#X/LLyy	.	16a#X/LLyy	.	2.r	.	.	4.ryy	.	.	4.ryy	.	4.ryy	4.ryy	4.ryy
.	.	16b/JJyy	.	16b/JJyy	.	.	.	.	.	.	.	.	.	.	.	.
8F#\yy	.	8d/Lyy	.	8d/Lyy	.	.	.	.	.	.	.	.	.	.	.	.
8F#\Jyy	.	8c#/Jyy	.	8c#/Jyy	.	.	.	.	.	.	.	.	.	.	.	.
=119	=119	=119	=119	=119	=119	=119	=119	=119	=119	=119	=119	=119	=119	=119	=119	=119
!LO:MO:mod=4BB;	!	!	!	!	!	!	!	!	!	!	!	!	!	!	!	!
4BB/yy	.	4B;/yy	.	4B;/yy	.	.	.	.	4.ryy	.	.	4.ryy	.	4.ryy	4.ryy	4.ryy
8ryy	.	8ryy	.	8ryy	.	.	.	.	.	.	.	.	.	.	.	.
=120||	=120||	=120||	=120||	=120||	=120||	=120||	=120||	=120||	=120||	=120||	=120||	=120||	=120||	=120||	=120||	=120||
*M4/4	*	*M4/4	*	*M4/4	*	*M4/4	*	*	*M4/4	*	*	*M4/4	*	*M4/4	*M4/4	*M4/4
*met(c)	*	*met(c)	*	*met(c)	*	*met(c)	*	*	*met(c)	*	*	*met(c)	*	*met(c)	*met(c)	*met(c)
*mmet(c)	*	*mmet(c)	*	*mmet(c)	*	*mmet(c)	*	*	*mmet(c)	*	*	*mmet(c)	*	*mmet(c)	*mmet(c)	*mmet(c)
!!!OMD:
!!!OMD-mod: Adagio
!LO:TX:a:i:t=AdaGio:mod=	!	!LO:TX:a:i:t=Adagio:mod=	!	!LO:TX:a:i:t=Adagio:mod=	!	!LO:TX:a:i:t=Adagio:mod=	!	!	!	!	!	!	!	!	!	!
!LO:TX:b:i:t=Kirie:mod=	!	!LO:TX:b:i:t=Kirie:mod=	!	!	!	!	!	!	!	!	!	!	!	!	!	!
4B\	.	4dd#X\	.	4ff#\	.	4d#X\	Ki-	Ky-	4ff#\	Ki-	Ky-	1ryy	.	1ryy	1ryy	1ryy
4B\	.	4dd#\	.	4ff#\	.	4d#\	-ri-	-ri-	4ff#\	-ri-	-ri-	.	.	.	.	.
4A\	.	4dd#\	.	4ff#\	.	4d#\	-e	-e	4ff#\	-e	-e	.	.	.	.	.
4A\	.	4dd#\	.	4ff#\	.	4d#\	e-	e-	4ff#\	e-	e-	.	.	.	.	.
=121	=121	=121	=121	=121	=121	=121	=121	=121	=121	=121	=121	=121	=121	=121	=121	=121
4G\	.	4ee\	.	4gg\	.	4e\	-lei-	-lei-	4gg\	-lei-	-lei-	1ryy	.	1ryy	1ryy	1ryy
4E\	.	4ee\	.	4gg\	.	4e\	-son	-son	4gg\	-son	-son	.	.	.	.	.
!LO:MO:mod=2r;	!	!LO:MO:mod=2r;	!	!LO:MO:mod=2r;	!	!	!	!	!	!	!	!	!	!	!	!
4r	.	2r	.	2r	.	2r;	.	.	2r;	.	.	.	.	.	.	.
!LO:MO:mod=.	!	!	!	!	!	!	!	!	!	!	!	!	!	!	!	!
4r	.	.	.	.	.	.	.	.	.	.	.	.	.	.	.	.
=122	=122	=122	=122	=122	=122	=122	=122	=122	=122	=122	=122	=122	=122	=122	=122	=122
4A\	.	4cc#\	.	4ee\	.	4c#\	ki-	ky-	4ee\	ki-	ky-	1ryy	.	1ryy	1ryy	1ryy
4A\	.	4cc#\	.	4ee\	.	4c#\	-ri-	-ri-	4ee\	-ri-	-ri-	.	.	.	.	.
4G\	.	4cc#\	.	4ee\	.	4c#\	-e	-e	4ee\	-e	-e	.	.	.	.	.
4G\	.	4cc#\	.	4ee\	.	4c#\	e-	e-	4ee\	e-	e-	.	.	.	.	.
=123	=123	=123	=123	=123	=123	=123	=123	=123	=123	=123	=123	=123	=123	=123	=123	=123
4F#\	.	4dd\	.	4ff#\	.	4d\	-lei-	-lei-	4ff#\	-lei-	-lei-	1ryy	.	1ryy	1ryy	1ryy
4D\	.	4dd\	.	4ff#\	.	4d\	-son	-son	4ff#\	-son	-son	.	.	.	.	.
!LO:MO:mod=2r;	!	!LO:MO:mod=2r;	!	!LO:MO:mod=2r;	!	!	!	!	!	!	!	!	!	!	!	!
2r	.	2r	.	2r	.	2r;	.	.	2r;	.	.	.	.	.	.	.
=124	=124	=124	=124	=124	=124	=124	=124	=124	=124	=124	=124	=124	=124	=124	=124	=124
4F#\	.	4a/	.	4dd\	.	4A\	ki-	ky-	4dd\	ki-	ky-	1ryy	.	1ryy	1ryy	1ryy
4F#\	.	4a/	.	4dd\	.	4A\	-ri-	-ri-	4dd\	-ri-	-ri-	.	.	.	.	.
8G\L	.	8b\L	.	8dd\L	.	8B\L	-e	-e	8dd\L	-e	-e	.	.	.	.	.
8A\J	.	8cc#\J	.	8ee\J	.	8c#\J	.	.	8ee\J	.	.	.	.	.	.	.
4B\	.	4dd\	.	4ff#\	.	4d\	e-	e-	4ff#\	e-	e-	.	.	.	.	.
!	!	!	!	!	!	!LO:LB:g=original	!	!	!	!	!	!	!	!	!	!
=125	=125	=125	=125	=125	=125	=125	=125	=125	=125	=125	=125	=125	=125	=125	=125	=125
4A\	.	2cc#\	.	2ee\	.	2c#\	-lei-	-lei-	2ee\	-lei-	-lei-	1ryy	.	1ryy	1ryy	1ryy
4AA/	.	.	.	.	.	.	.	.	.	.	.	.	.	.	.	.
!	!	!LO:TX:b:t=Verte Kirie Allo:mod=	!	!LO:TX:b:t=Verte Kirie Allo:mod=	!	!	!	!	!	!	!	!	!	!	!	!
2D\	.	2dd\	.	2ff#\	.	2d\	-son	-son	2ff#\	-son	-son	.	.	.	.	.
!LO:LB:g=original	!	!LO:PB:g=original	!	!LO:PB:g=original	!	!	!	!	!LO:LB:g=original	!	!	!LO:LB:g=original	!	!	!	!
=126||	=126||	=126||	=126||	=126||	=126||	=126||	=126||	=126||	=126||	=126||	=126||	=126||	=126||	=126||	=126||	=126||
*M2/4	*	*M2/4	*	*M2/4	*	*M2/4	*	*	*M2/4	*	*	*M2/4	*	*M2/4	*M2/4	*M2/4
!!!OMD:
!!!OMD-mod: Allegro
!	!	!LO:TX:b:i:t=Kirie:mod=	!	!LO:TX:b:i:t=Kirie:mod=	!	!	!	!	!	!	!	!LO:TX:b:i:t=Kirie:mod=	!	!LO:TX:b:t=Kirie:mod=	!	!
!LO:TX:a:t=Allo:mod=	!	!LO:TX:a:i:t=Allo&colon;:mod=	!	!LO:TX:a:i:t=Allo:mod=	!	!LO:TX:a:i:t=Allo&colon;:mod=	!	!	!LO:TX:a:t=Allo:mod=	!	!	!LO:TX:a:i:t=Allo:mod=	!	!LO:TX:a:t=Allo:mod=	!	!
4D\	.	4ff# 4a 4d/	.	4ff# 4a 4d/	.	4d\	ki-	Ky-	4ff#\	Ki-	Ky-	4dd\	.	4ff#\	2ryy	2ryy
4D\	.	4ff# 4a 4d/	.	4ff# 4a 4d/	.	4d\	-ri-	-ri-	4ff#\	-ri-	-ri-	4dd\	.	4ff#\	.	.
=127	=127	=127	=127	=127	=127	=127	=127	=127	=127	=127	=127	=127	=127	=127	=127	=127
4D\	.	4ff# 4a 4d/	.	4ff# 4a 4d/	.	4d\	-e	-e	4ff#\	-e	-e	4dd\	.	4ff#\	2ryy	2ryy
4r	.	8r	.	8r	.	4r	.	.	4r	.	.	4r	.	4r	.	.
.	.	8dd\	.	8dd\	.	.	.	.	.	.	.	.	.	.	.	.
=128	=128	=128	=128	=128	=128	=128	=128	=128	=128	=128	=128	=128	=128	=128	=128	=128
!	!	!	!	!	!	!LO:N:vis=0	!	!	!LO:N:vis=0	!	!	!	!	!	!	!
8D\L	.	8ff#\L	.	8ff#\L	.	1r	.	.	1r	.	.	8dd\L	.	8dd\L	2ryy	2ryy
8D\	.	8aa\	.	8aa\	.	.	.	.	.	.	.	8dd\	.	8dd\	.	.
8D\	.	8gg\	.	8gg\	.	.	.	.	.	.	.	8dd\	.	8dd\	.	.
8D\J	.	8bb\J	.	8bb\J	.	.	.	.	.	.	.	8dd\J	.	8dd\J	.	.
=129	=129	=129	=129	=129	=129	=129	=129	=129	=129	=129	=129	=129	=129	=129	=129	=129
8D\L	.	8aa\	.	8aa\	.	.	.	.	.	.	.	8dd\L	.	8dd\L	2ryy	2ryy
8D\	.	4ddd\	.	4ddd\	.	.	.	.	.	.	.	8dd\	.	8dd\	.	.
8D\	.	.	.	.	.	.	.	.	.	.	.	8dd\	.	8dd\	.	.
8D\J	.	8dd\	.	8dd\	.	.	.	.	.	.	.	8dd\J	.	8dd\J	.	.
=130	=130	=130	=130	=130	=130	=130	=130	=130	=130	=130	=130	=130	=130	=130	=130	=130
!	!	!	!	!	!	!	!	!	!	!	!	!	!LO:DY:a:t=p&colon;	!	!	!
!	!	!	!	!	!	!	!	!	!	!	!	!	!LO:MO:mod=.	!LO:TX:t=P:problem=w źródle takt 107 zapisany jako repetycja taktu 106	!	!
8D\L	.	8ff#\L	.	8ff#\L	.	2r	.	.	2r	.	.	8dd\L	p	8dd\Lyy	2ryy	2ryy
8D\	.	8aa\	.	8aa\	.	.	.	.	.	.	.	8dd\	.	8dd\yy	.	.
8D\	.	8gg\	.	8gg\	.	.	.	.	.	.	.	8dd\	.	8dd\yy	.	.
8D\J	.	8bb\J	.	8bb\J	.	.	.	.	.	.	.	8dd\J	.	8dd\Jyy	.	.
=131	=131	=131	=131	=131	=131	=131	=131	=131	=131	=131	=131	=131	=131	=131	=131	=131
8D\L	.	8aa\	.	8aa\	.	4r	.	.	4r	.	.	8dd\L	.	8dd\L	2ryy	2ryy
8D\	.	4ddd\	.	4ddd\	.	.	.	.	.	.	.	8dd\	.	8dd\	.	.
8D\	.	.	.	.	.	8r	.	.	8r	.	.	8dd\	.	8dd\	.	.
8F#\J	.	8ff#\	.	8aa\	.	8d\	e-	e-	8ff#\	e-	e-	8dd\J	.	8ff#\J	.	.
=132	=132	=132	=132	=132	=132	=132	=132	=132	=132	=132	=132	=132	=132	=132	=132	=132
!	!	!	!	!	!	!LO:MO:mod=4e(	!	!	!	!	!	!	!	!	!	!
4G\	.	4ee\	.	4gg\	.	4e\	-lei-	-lei-	(4gg\	-lei-	-lei-	4ee\	.	4gg\	2ryy	2ryy
!	!	!	!	!	!	!LO:MO:mod=4c#)	!	!	!	!	!	!	!	!	!	!
4A\	.	4cc#\	.	4ee\	.	4c#\	.	.	4ee\)	.	.	4a/	.	4ee\	.	.
=133	=133	=133	=133	=133	=133	=133	=133	=133	=133	=133	=133	=133	=133	=133	=133	=133
4D/	.	4dd\	.	4ff#\	.	4d\	-son	-son	4ff#\	-son	-son	4dd\	.	4ff#\	2ryy	2ryy
4d\	.	4ff#\	.	4aa\	.	4d\	e-	e-	4ff#\	e-	e-	4dd\	.	4ff#\	.	.
=134	=134	=134	=134	=134	=134	=134	=134	=134	=134	=134	=134	=134	=134	=134	=134	=134
8D\L	.	16dd\LL	.	16ff#\LL	.	2d\	-lei-	-lei-	2ff#\	-lei-	-lei-	8dd\L	.	8ff#\L	2ryy	2ryy
.	.	16ff#\	.	16ddd\	.	.	.	.	.	.	.	.	.	.	.	.
8E\	.	16ff#\	.	16ddd\	.	.	.	.	.	.	.	16dd\L	.	16ff#\L	.	.
.	.	16ff#\JJ	.	16ddd\JJ	.	.	.	.	.	.	.	16dd\JJ	.	16ff#\JJ	.	.
8F#\	.	16ff#\LL	.	16ddd\LL	.	.	.	.	.	.	.	8dd\L	.	8ff#\L	.	.
.	.	16ff#\	.	16ddd\	.	.	.	.	.	.	.	.	.	.	.	.
8G\J	.	16ff#\	.	16ddd\	.	.	.	.	.	.	.	8dd\J	.	8ff#\J	.	.
.	.	16ff#\JJ	.	16ddd\JJ	.	.	.	.	.	.	.	.	.	.	.	.
!	!	!	!	!	!	!	!	!	!	!	!	!	!	!LO:LB:g=original	!	!
=135	=135	=135	=135	=135	=135	=135	=135	=135	=135	=135	=135	=135	=135	=135	=135	=135
!LO:TX:a:t=P:problem=mixed beam	!	!	!	!	!	!	!	!	!	!	!	!	!	!	!	!
8A\L	.	8ee\L	.	8ccc#\L	.	4c#\	-son	-son	4ee\	-son	-son	8a/L	.	8ee\L	2ryy	2ryy
8AA/	.	8cc#\	.	8ee\	.	.	.	.	.	.	.	8a/	.	8ee\	.	.
8C#/	.	8ee\	.	8ccc#\	.	4c#\	e-	e-	4ee\	e-	e-	8a/	.	8ee\	.	.
8AA/J	.	8cc#\J	.	8ee\J	.	.	.	.	.	.	.	8a/J	.	8ee\J	.	.
=136	=136	=136	=136	=136	=136	=136	=136	=136	=136	=136	=136	=136	=136	=136	=136	=136
8D\L	.	16dd\LL	.	16dd\LL	.	2d\	-lei	-lei	2ff#\	-lei-	-lei-	8dd\L	.	8ff#\L	2ryy	2ryy
.	.	16ff#\	.	16ddd\	.	.	.	.	.	.	.	.	.	.	.	.
8E\	.	16ff#\	.	16ddd\	.	.	.	.	.	.	.	16dd\L	.	16ff#\L	.	.
.	.	16ff#\JJ	.	16ddd\JJ	.	.	.	.	.	.	.	16dd\JJ	.	16ff#\JJ	.	.
8F#\	.	16ff#\LL	.	16ddd\LL	.	.	.	.	.	.	.	8dd\L	.	8ff#\L	.	.
.	.	16ff#\	.	16ddd\	.	.	.	.	.	.	.	.	.	.	.	.
8G\J	.	16ff#\	.	16ddd\	.	.	.	.	.	.	.	8dd\J	.	8ff#\J	.	.
.	.	16ff#\JJ	.	16ddd\JJ	.	.	.	.	.	.	.	.	.	.	.	.
=137	=137	=137	=137	=137	=137	=137	=137	=137	=137	=137	=137	=137	=137	=137	=137	=137
!LO:TX:a:t=P:problem=mixed beam	!	!	!	!	!	!	!	!	!	!	!	!	!	!	!	!
8A\L	.	4ee\	.	4ccc#\	.	4c#\	-son	-son	4ee\	-son	-son	4a/	.	4ee\	2ryy	2ryy
8AA/	.	.	.	.	.	.	.	.	.	.	.	.	.	.	.	.
8A\	.	16gg\LL	.	16ccc#\LL	.	4e\	e-	e-	4gg\	e-	e-	8a/L	.	8ee\L	.	.
.	.	16gg\	.	16ccc#\	.	.	.	.	.	.	.	.	.	.	.	.
8B\J	.	16gg\	.	16ccc#\	.	.	.	.	.	.	.	8a/J	.	8ee\J	.	.
.	.	16gg\JJ	.	16ccc#\JJ	.	.	.	.	.	.	.	.	.	.	.	.
=138	=138	=138	=138	=138	=138	=138	=138	=138	=138	=138	=138	=138	=138	=138	=138	=138
8c#\L	.	16gg\LL	.	16ccc#\LL	.	2e\	-lei-	-lei-	2gg\	-lei-	-lei-	8a/L	.	8ee\L	2ryy	2ryy
.	.	16gg\	.	16ccc#\	.	.	.	.	.	.	.	.	.	.	.	.
8d\	.	16gg\	.	16ccc#\	.	.	.	.	.	.	.	16a/L	.	8ee\	.	.
.	.	16gg\JJ	.	16ccc#\JJ	.	.	.	.	.	.	.	16a/J	.	.	.	.
8e\	.	16gg\LL	.	16ccc#\LL	.	.	.	.	.	.	.	8a/	.	8ee\	.	.
.	.	16gg\	.	16ccc#\	.	.	.	.	.	.	.	.	.	.	.	.
8A\J	.	16gg\	.	16ccc#\	.	.	.	.	.	.	.	8a/J	.	8ee\J	.	.
.	.	16gg\JJ	.	16ccc#\JJ	.	.	.	.	.	.	.	.	.	.	.	.
!	!	!	!	!LO:LB:g=original	!	!LO:LB:g=original	!	!	!	!	!	!	!	!	!	!
=139	=139	=139	=139	=139	=139	=139	=139	=139	=139	=139	=139	=139	=139	=139	=139	=139
!	!	!	!	!	!	!	!	!	!	!	!	!	!	!	!	!
4d\	.	8ff#\L	.	8ddd\L	.	4d\	-son	-son	4ff#\	-son	-son	4dd\	.	4ff#\	2ryy	2ryy
.	.	8ff#\	.	8aa\	.	.	.	.	.	.	.	.	.	.	.	.
4D/	.	8dd\	.	8ff#\	.	4d\	e-	e-	4ff#\	e-	e-	8dd\L	.	8ff#\L	.	.
.	.	8ff#\J	.	8ddd\J	.	.	.	.	.	.	.	8dd\J	.	8ff#\J	.	.
!	!	!LO:LB:g=original	!	!	!	!	!	!	!	!	!	!	!	!	!	!
=140	=140	=140	=140	=140	=140	=140	=140	=140	=140	=140	=140	=140	=140	=140	=140	=140
4A\	.	4ee\	.	4ee\	.	2c#\	-lei-	-lei-	2ee\	-lei-	-lei-	4a/	.	4ee\	2ryy	2ryy
4AA/	.	4ee\	.	4ccc#\	.	.	.	.	.	.	.	4a/	.	4ee\	.	.
!	!	!	!	!	!	!	!	!	!LO:LB:g=original	!	!	!	!	!	!	!
=141	=141	=141	=141	=141	=141	=141	=141	=141	=141	=141	=141	=141	=141	=141	=141	=141
4D/	.	4ff#\	.	4ddd\	.	4d\	-son	-son	4ff#\	-son	-son	4dd\	.	4ff#\	2ryy	2ryy
!	!	!	!	!LO:TX:a:t=P:problem=mixed beam	!	!	!	!	!	!	!	!	!	!	!	!
4d\	.	4ff#\	.	16aa\LL	.	4d\	e-	e-	4ff#\	e-	e-	4dd\	.	4ff#\	.	.
.	.	.	.	16a/	.	.	.	.	.	.	.	.	.	.	.	.
.	.	.	.	16aa\	.	.	.	.	.	.	.	.	.	.	.	.
.	.	.	.	16a/JJ	.	.	.	.	.	.	.	.	.	.	.	.
=142	=142	=142	=142	=142	=142	=142	=142	=142	=142	=142	=142	=142	=142	=142	=142	=142
!	!	!	!	!LO:TX:a:t=P:problem=mixed beam	!	!	!	!	!	!	!	!	!	!	!	!
8c#\L	.	16ee\LL	.	16aa\LL	.	8c#\L	-lei-	-lei-	8ee\L	-lei-	-lei-	4a/	.	4ee\	2ryy	2ryy
.	.	16ee\	.	16a/	.	.	.	.	.	.	.	.	.	.	.	.
8B\	.	16dd\	.	16aa\	.	8d\	.	.	8dd\	.	.	.	.	.	.	.
.	.	16dd\JJ	.	16a/JJ	.	.	.	.	.	.	.	.	.	.	.	.
!	!	!	!	!LO:TX:a:t=P:problem=mixed beam	!	!	!	!	!	!	!	!	!	!	!	!
8A\	.	16cc#\LL	.	16aa\LL	.	8e\	.	.	8cc#\	.	.	4r	.	4r	.	.
.	.	16cc#\	.	16a/	.	.	.	.	.	.	.	.	.	.	.	.
8G#X\J	.	16b\	.	16aa\	.	8c#\J	.	.	8b\J	.	.	.	.	.	.	.
.	.	16b\JJ	.	16a/JJ	.	.	.	.	.	.	.	.	.	.	.	.
=143	=143	=143	=143	=143	=143	=143	=143	=143	=143	=143	=143	=143	=143	=143	=143	=143
!	!	!	!	!LO:TX:a:t=P:problem=mixed beam	!	!	!	!	!	!	!	!	!	!	!	!
8A\L	.	16cc#\LL	.	16aa\LL	.	8c#\L	.	.	8cc#\L	-son	.	4a/	.	4ee\	2ryy	2ryy
.	.	16cc#\JJ	.	16a/	.	.	.	.	.	.	.	.	.	.	.	.
8B\	.	16dd\LL	.	16aa\	.	8B\J	.	.	8dd\J	.	.	.	.	.	.	.
.	.	16dd\JJ	.	16a/JJ	.	.	.	.	.	.	.	.	.	.	.	.
!	!	!	!	!LO:TX:a:t=P:problem=mixed beam	!	!	!	!	!	!	!	!	!	!	!	!
8c#\	.	16ee\LL	.	16aa\LL	.	8A\	-son	-son	8ee\	e-	-son	4r	.	4r	.	.
.	.	16ee\	.	16a/	.	.	.	.	.	.	.	.	.	.	.	.
8d\J	.	16ff#\	.	16aa\	.	8d\	e-	e-	8ff#\	.	e-	.	.	.	.	.
.	.	16ff#\JJ	.	16a/JJ	.	.	.	.	.	.	.	.	.	.	.	.
!	!	!	!	!	!	!	!	!	!	!	!	!LO:LB:g=original	!	!	!	!
=144	=144	=144	=144	=144	=144	=144	=144	=144	=144	=144	=144	=144	=144	=144	=144	=144
!	!	!	!	!LO:TX:a:t=P:problem=mixed beam	!	!	!	!	!	!	!	!	!	!	!	!
8c#\L	.	16ee\LL	.	16aa\LL	.	8c#\L	-lei-	-lei-	8ee\L	-lei-	-lei-	4a/	.	4ee\	2ryy	2ryy
.	.	16ee\	.	16a/	.	.	.	.	.	.	.	.	.	.	.	.
8B\	.	16dd\	.	16aa\	.	8d\	.	.	8dd\	.	.	.	.	.	.	.
.	.	16dd\JJ	.	16a/JJ	.	.	.	.	.	.	.	.	.	.	.	.
!	!	!	!	!LO:TX:a:t=P:problem=mixed beam	!	!	!	!	!	!	!	!	!	!	!	!
8A\	.	16cc#\LL	.	16aa\LL	.	8e\	.	.	8cc#\	.	.	4r	.	4r	.	.
.	.	16cc#\	.	16a/	.	.	.	.	.	.	.	.	.	.	.	.
8G#X\J	.	16b\	.	16aa\	.	8d\J	.	.	8b\J	.	.	.	.	.	.	.
.	.	16b\JJ	.	16a/JJ	.	.	.	.	.	.	.	.	.	.	.	.
!LO:LB:g=original	!	!	!	!	!	!	!	!	!	!	!	!	!	!	!	!
=145	=145	=145	=145	=145	=145	=145	=145	=145	=145	=145	=145	=145	=145	=145	=145	=145
!	!	!	!	!LO:TX:a:t=P:problem=mixed beam	!	!	!	!	!	!	!	!	!	!	!	!
8A\L	.	4cc#\	.	8aa\L	.	4c#\	-son	-son	4cc#\	-son	-son	4a/	.	4ee\	2ryy	2ryy
8A\	.	.	.	8a/J	.	.	.	.	.	.	.	.	.	.	.	.
!	!	!LO:N:vis=4	!	!	!	!	!	!	!	!	!	!	!	!	!	!
!	!	!LO:MO:mod=8aL	!	!	!	!	!	!	!	!	!	!	!	!	!	!
8A\	.	8a\	.	8aa\L	.	8r	.	.	8r	.	.	4r	.	4r	.	.
!	!	!LO:MO:mod=16eeL	!	!LO:TX:a:t=P:problem=mixed beam	!	!	!	!	!	!	!	!	!	!	!	!
8cn\J	.	16ee\LL	.	16gg\L	.	8cn\	e-	e-	8ee\	e-	e-	.	.	.	.	.
.	.	16ee\JJ	.	16g/JJ	.	.	.	.	.	.	.	.	.	.	.	.
=146	=146	=146	=146	=146	=146	=146	=146	=146	=146	=146	=146	=146	=146	=146	=146	=146
!	!	!	!	!LO:TX:a:t=P:problem=mixed beam	!	!	!	!	!	!	!	!LO:N:vis=00	!	!LO:N:vis=00	!	!
8B\L	.	16dd\LL	.	16gg\LL	.	8B\L	-lei-	-lei-	8dd\L	-lei-	-lei-	0r	.	0r	2ryy	2ryy
.	.	16dd\	.	16g/	.	.	.	.	.	.	.	.	.	.	.	.
!	!	!	!	!	!	!LO:SIC:v:s=8c	!	!	!	!	!	!	!	!	!	!
8A\	.	16ccn\	.	16gg\	.	8c#\	.	.	8ccn\	.	.	.	.	.	.	.
.	.	16cc\JJ	.	16g/JJ	.	.	.	.	.	.	.	.	.	.	.	.
!	!	!	!	!LO:TX:a:t=P:problem=mixed beam	!	!	!	!	!	!	!	!	!	!	!	!
8G\	.	16b\LL	.	16gg\LL	.	8d\	.	.	8b\	.	.	.	.	.	.	.
.	.	16b\	.	16g/	.	.	.	.	.	.	.	.	.	.	.	.
!	!	!	!	!	!	!LO:SIC:v:s=8cJ	!	!	!	!	!	!	!	!	!	!
8F#\J	.	16a\	.	16gg\	.	8c#\J	.	.	8a\J	.	.	.	.	.	.	.
.	.	16a\JJ	.	16g/JJ	.	.	.	.	.	.	.	.	.	.	.	.
=147	=147	=147	=147	=147	=147	=147	=147	=147	=147	=147	=147	=147	=147	=147	=147	=147
!	!	!	!	!LO:TX:a:t=P:problem=mixed beam	!	!	!	!	!	!	!	!	!	!	!	!
8G\L	.	16b\LL	.	16gg\LL	.	8B\L	.	.	8b\L	-son	.	.	.	.	2ryy	2ryy
.	.	16b\	.	16g/	.	.	.	.	.	.	.	.	.	.	.	.
!	!	!LO:SIC:v:s=16cc	!	!	!	!	!	!	!LO:SIC:v:s=8ccJ	!	!	!	!	!	!	!
8A\	.	16cc#\	.	16gg\	.	8A\J	.	.	8cc#\J	.	.	.	.	.	.	.
!	!	!LO:SIC:v:s=16ccJJ	!	!	!	!	!	!	!	!	!	!	!	!	!	!
.	.	16cc#\JJ	.	16g/JJ	.	.	.	.	.	.	.	.	.	.	.	.
!	!	!	!	!LO:TX:a:t=P:problem=mixed beam	!	!	!	!	!	!	!	!	!	!	!	!
8B\	.	16dd\LL	.	16gg\LL	.	8G/	-son	-son	8dd\	e-	-son	.	.	.	.	.
.	.	16dd\	.	16g/	.	.	.	.	.	.	.	.	.	.	.	.
8cn\J	.	16ee\	.	16gg\	.	8cn\	e	e	8ee\	.	e-	.	.	.	.	.
.	.	16ee\JJ	.	16g/JJ	.	.	.	.	.	.	.	.	.	.	.	.
=148	=148	=148	=148	=148	=148	=148	=148	=148	=148	=148	=148	=148	=148	=148	=148	=148
!	!	!	!	!LO:TX:a:t=P:problem=mixed beam	!	!	!	!	!	!	!	!	!	!	!	!
8B\L	.	16dd\LL	.	16gg\LL	.	8B\L	-lei-	-lei-	8dd\L	-lei-	-lei-	.	.	.	2ryy	2ryy
.	.	16dd\	.	16g/	.	.	.	.	.	.	.	.	.	.	.	.
!	!	!LO:SIC:v:s=16cc	!	!	!	!LO:SIC:v:s=8c	!	!	!LO:SIC:v:s=8cc	!	!	!	!	!	!	!
8A\	.	16cc#\	.	16gg\	.	8c#\	.	.	8cc#\	.	.	.	.	.	.	.
!	!	!LO:SIC:v:s=16ccJJ	!	!	!	!	!	!	!	!	!	!	!	!	!	!
.	.	16cc#\JJ	.	16g/JJ	.	.	.	.	.	.	.	.	.	.	.	.
!	!	!	!	!LO:TX:a:t=P:problem=mixed beam	!	!	!	!	!	!	!	!	!	!	!	!
8G\	.	16b\LL	.	16gg\LL	.	8d\	.	.	8b\	.	.	.	.	.	.	.
.	.	16b\	.	16g/	.	.	.	.	.	.	.	.	.	.	.	.
!	!	!	!	!	!	!LO:SIC:v:s=8cJ	!	!	!	!	!	!	!	!	!	!
8F#\J	.	16a\	.	16gg\	.	8c#\J	.	.	8a\J	.	.	.	.	.	.	.
.	.	16a\JJ	.	16g/JJ	.	.	.	.	.	.	.	.	.	.	.	.
=149	=149	=149	=149	=149	=149	=149	=149	=149	=149	=149	=149	=149	=149	=149	=149	=149
!	!	!	!	!LO:TX:a:t=P:problem=mixed beam	!	!	!	!	!	!	!	!	!	!	!	!
8G\L	.	8b\L	.	8gg\L	.	4B\	son	son	4b\	son	son	.	.	.	2ryy	2ryy
8G\	.	8g\J	.	8g/J	.	.	.	.	.	.	.	.	.	.	.	.
!	!	!	!	!LO:TX:a:t=P:problem=mixed beam	!	!	!	!	!	!	!	!	!	!	!	!
8G\	.	8g/L	.	8gg\L	.	8r	.	.	8r	.	.	.	.	.	.	.
8G\J	.	16b/L	.	16dd\L	.	8B\	e-	e-	8dd\	e-	e-	.	.	.	.	.
.	.	16b/JJ	.	16d/JJ	.	.	.	.	.	.	.	.	.	.	.	.
=150	=150	=150	=150	=150	=150	=150	=150	=150	=150	=150	=150	=150	=150	=150	=150	=150
!	!	!	!	!LO:TX:a:t=P:problem=mixed beam	!	!	!	!	!	!	!	!LO:N:vis=0	!	!LO:N:vis=0	!	!
8F#\L	.	16a/LL	.	16dd\LL	.	8A/L	-lei-	-lei-	2dd\	-lei-	-lei-	1r	.	1r	2ryy	2ryy
.	.	16a/	.	16d/	.	.	.	.	.	.	.	.	.	.	.	.
8E\	.	16g/	.	16dd\	.	8G/	.	.	.	.	.	.	.	.	.	.
.	.	16g/JJ	.	16d/JJ	.	.	.	.	.	.	.	.	.	.	.	.
!	!	!	!	!LO:TX:a:t=P:problem=mixed beam	!	!	!	!	!	!	!	!	!	!	!	!
8D\	.	16f#/LL	.	16dd\LL	.	8F#/	.	.	.	.	.	.	.	.	.	.
.	.	16f#/	.	16d/	.	.	.	.	.	.	.	.	.	.	.	.
8C#X\J	.	16e/	.	16dd\	.	8E/J	.	.	.	.	.	.	.	.	.	.
.	.	16e/JJ	.	16d/JJ	.	.	.	.	.	.	.	.	.	.	.	.
!	!	!	!	!LO:LB:g=original	!	!LO:LB:g=original	!	!	!	!	!	!	!	!	!	!
=151	=151	=151	=151	=151	=151	=151	=151	=151	=151	=151	=151	=151	=151	=151	=151	=151
!	!	!	!	!LO:TX:a:t=P:problem=mixed beam	!	!	!	!	!	!	!	!	!	!	!	!
8D\L	.	16f#/LL	.	16dd\LL	.	8F#/L	.	.	4dd\	-son	-son	.	.	.	2ryy	2ryy
.	.	16f#/	.	16d/	.	.	.	.	.	.	.	.	.	.	.	.
8E\	.	16g/	.	16dd\	.	8G/J	.	.	.	.	.	.	.	.	.	.
.	.	16g/JJ	.	16d/JJ	.	.	.	.	.	.	.	.	.	.	.	.
!	!	!	!	!LO:TX:a:t=P:problem=mixed beam	!	!	!	!	!	!	!	!	!	!	!	!
8F#\	.	16a/LL	.	16dd\LL	.	8A\	-son	-son	4dd\	e-	e-	.	.	.	.	.
.	.	16a/	.	16d/	.	.	.	.	.	.	.	.	.	.	.	.
8G\J	.	16b/	.	16dd\	.	8B\	e-	e-	.	.	.	.	.	.	.	.
.	.	16b/JJ	.	16d/JJ	.	.	.	.	.	.	.	.	.	.	.	.
!	!	!LO:LB:g=original	!	!	!	!	!	!	!LO:LB:g=original	!	!	!	!	!	!	!
=152	=152	=152	=152	=152	=152	=152	=152	=152	=152	=152	=152	=152	=152	=152	=152	=152
!	!	!	!	!LO:TX:a:t=P:problem=mixed beam	!	!	!	!	!	!	!	!	!	!	!	!
8F#\L	.	16a/LL	.	16dd\LL	.	8A\L	-lei-	-lei-	2dd\	-lei-	-lei-	2r	.	2r	2ryy	2ryy
.	.	16a/	.	16d/	.	.	.	.	.	.	.	.	.	.	.	.
8E\	.	16g/	.	16dd\	.	8G\	.	.	.	.	.	.	.	.	.	.
.	.	16g/JJ	.	16d/JJ	.	.	.	.	.	.	.	.	.	.	.	.
!	!	!	!	!LO:TX:a:t=P:problem=mixed beam	!	!	!	!	!	!	!	!	!	!	!	!
8D\	.	16f#/LL	.	16dd\LL	.	8F#\	.	.	.	.	.	.	.	.	.	.
.	.	16f#/	.	16d/	.	.	.	.	.	.	.	.	.	.	.	.
8C#\J	.	16e/	.	16dd\	.	8E\J	.	.	.	.	.	.	.	.	.	.
.	.	16e/JJ	.	16d/JJ	.	.	.	.	.	.	.	.	.	.	.	.
=153	=153	=153	=153	=153	=153	=153	=153	=153	=153	=153	=153	=153	=153	=153	=153	=153
8D\L	.	16f#/LL	.	16dd\LL	.	4F#/	-son	-son	4dd\	-son	-son	8dd\L	.	8ff#\L	2ryy	2ryy
.	.	16f#/	.	16dd\	.	.	.	.	.	.	.	.	.	.	.	.
8E\	.	16f#/	.	16dd\	.	.	.	.	.	.	.	16dd\L	.	16ff#\L	.	.
.	.	16f#/JJ	.	16dd\JJ	.	.	.	.	.	.	.	16dd\JJ	.	16ff#\JJ	.	.
8F#\	.	16ff#\LL	.	16ddd\LL	.	4A/	e-	e-	4dd\	e-	e-	8dd\L	.	8ff#\L	.	.
.	.	16ff#\	.	16ddd\	.	.	.	.	.	.	.	.	.	.	.	.
8G\J	.	16ff#\	.	16ddd\	.	.	.	.	.	.	.	8dd\J	.	8ff#\J	.	.
.	.	16ff#\JJ	.	16ddd\JJ	.	.	.	.	.	.	.	.	.	.	.	.
=154	=154	=154	=154	=154	=154	=154	=154	=154	=154	=154	=154	=154	=154	=154	=154	=154
4A\	.	16ee\LL	.	16ccc#\LL	.	2c#\	-lei	-lei	2ee\	-lei	-lei	8a/L	.	8ee\L	2ryy	2ryy
.	.	16ee\	.	16ccc#\	.	.	.	.	.	.	.	.	.	.	.	.
.	.	16ee\	.	16ccc#\	.	.	.	.	.	.	.	16a/L	.	16ee\L	.	.
.	.	16ee\JJ	.	16ccc#\JJ	.	.	.	.	.	.	.	16a/JJ	.	16ee\JJ	.	.
4AA/	.	16ee\LL	.	16ccc#\LL	.	.	.	.	.	.	.	8a/L	.	8ee\L	.	.
.	.	16ee\	.	16ccc#\	.	.	.	.	.	.	.	.	.	.	.	.
.	.	16ee\	.	16ccc#\	.	.	.	.	.	.	.	8a/J	.	8ee\J	.	.
.	.	16ee\JJ	.	16ccc#\JJ	.	.	.	.	.	.	.	.	.	.	.	.
=155	=155	=155	=155	=155	=155	=155	=155	=155	=155	=155	=155	=155	=155	=155	=155	=155
4D/	.	16ff#\LL	.	16ddd\LL	.	4d\	-son	-son	4ff#\	-son	-son	8dd\L	.	8ff#\L	2ryy	2ryy
.	.	16ff#\	.	16ddd\	.	.	.	.	.	.	.	.	.	.	.	.
.	.	16ff#\	.	16ddd\	.	.	.	.	.	.	.	16dd\L	.	16ff#\L	.	.
.	.	16ff#\JJ	.	16ddd\JJ	.	.	.	.	.	.	.	16dd\J	.	16ff#\J	.	.
4d\	.	16ff#\LL	.	16ddd\LL	.	4d\	e-	e-	4ff#\	e-	e-	8dd\	.	8ff#\	.	.
.	.	16ff#\	.	16ddd\	.	.	.	.	.	.	.	.	.	.	.	.
.	.	16ff#\	.	16ddd\	.	.	.	.	.	.	.	8dd\J	.	8ff#\J	.	.
.	.	16ff#\JJ	.	16ddd\JJ	.	.	.	.	.	.	.	.	.	.	.	.
=156	=156	=156	=156	=156	=156	=156	=156	=156	=156	=156	=156	=156	=156	=156	=156	=156
4d\	.	16ff#\LL	.	16ddd\LL	.	2d\	-lei-	-lei-	2ff#\	-lei-	-lei-	8dd\L	.	8ff#\L	2ryy	2ryy
.	.	16ff#\	.	16ddd\	.	.	.	.	.	.	.	.	.	.	.	.
.	.	16ff#\	.	16ddd\	.	.	.	.	.	.	.	8dd\	.	8ff#\	.	.
.	.	16ff#\JJ	.	16ddd\JJ	.	.	.	.	.	.	.	.	.	.	.	.
4D/	.	16ff#\LL	.	16ddd\LL	.	.	.	.	.	.	.	8dd\	.	8ff#\	.	.
.	.	16ff#\	.	16ddd\	.	.	.	.	.	.	.	.	.	.	.	.
.	.	16ff#\	.	16ddd\	.	.	.	.	.	.	.	8dd\J	.	8ff#\J	.	.
.	.	16ff#\JJ	.	16ddd\JJ	.	.	.	.	.	.	.	.	.	.	.	.
=157	=157	=157	=157	=157	=157	=157	=157	=157	=157	=157	=157	=157	=157	=157	=157	=157
4A\	.	4ee\	.	4ccc#\	.	4c#\	-son	-son	4ee\	-son	-son	4a/	.	4ee\	2ryy	2ryy
4r	.	4r	.	4r	.	4r	.	.	4r	.	.	4r	.	4r	.	.
=158	=158	=158	=158	=158	=158	=158	=158	=158	=158	=158	=158	=158	=158	=158	=158	=158
4A\	.	4ee 4cc# 4a/	.	4ee 4cc# 4a/	.	4e\	ki-	ky-	4cc#\	e-	ky-	4a/	.	4ee\	2ryy	2ryy
4AA/	.	4ee 4cc# 4a/	.	4ee 4cc# 4a/	.	4e\	-ri-	-ri-	4cc#\	-lei-	-ri-	4a/	.	4ee\	.	.
!	!	!	!	!	!	!	!	!	!	!	!	!	!	!LO:LB:g=original	!	!LO:LB:g=original
=159	=159	=159	=159	=159	=159	=159	=159	=159	=159	=159	=159	=159	=159	=159	=159	=159
4AA/	.	4ee 4cc# 4a/	.	4ee 4cc# 4a/	.	4e\	-e	-e	4cc#\	-son	-e	4a/	.	4ee\	2ryy	2ryy
4r	.	8r	.	8r	.	4r	.	.	4r	.	.	4r	.	4r	.	.
.	.	8a/	.	8a/	.	.	.	.	.	.	.	.	.	.	.	.
=160	=160	=160	=160	=160	=160	=160	=160	=160	=160	=160	=160	=160	=160	=160	=160	=160
!	!	!	!	!	!	!LO:N:vis=0	!	!	!LO:N:vis=0	!	!	!	!	!	!	!
8AA/L	.	(8a\L	.	(8cc#\L	.	1r	.	.	1r	.	.	8a/L	.	8a/L	2ryy	2ryy
8AA/	.	8cc#\)	.	8ee\)	.	.	.	.	.	.	.	8a/	.	8a/	.	.
!	!	!LO:MO:mod=8b(	!	!	!	!	!	!	!	!	!	!	!	!	!	!
8AA/	.	8b\	.	(8dd\	.	.	.	.	.	.	.	8a/	.	8a/	.	.
!	!	!LO:MO:mod=8ddJ)	!	!	!	!	!	!	!	!	!	!	!	!	!	!
8AA/J	.	8dd\J	.	8ff#\J)	.	.	.	.	.	.	.	8a/J	.	8a/J	.	.
=161	=161	=161	=161	=161	=161	=161	=161	=161	=161	=161	=161	=161	=161	=161	=161	=161
8AA/L	.	8cc#\	.	8ee\	.	.	.	.	.	.	.	8a/L	.	8a/L	2ryy	2ryy
8AA/	.	4cc#\	.	4aa\	.	.	.	.	.	.	.	8a/	.	8a/	.	.
8AA/	.	.	.	.	.	.	.	.	.	.	.	8a/	.	8a/	.	.
8AA/J	.	8a/	.	8a/	.	.	.	.	.	.	.	8a/J	.	8a/J	.	.
=162	=162	=162	=162	=162	=162	=162	=162	=162	=162	=162	=162	=162	=162	=162	=162	=162
!	!	!LO:MO:mod=8aL(	!	!	!	!	!	!	!	!	!	!	!	!	!	!
8AA/L	.	8a\L	.	(8cc#\L	.	2r	.	.	2r	.	.	8a/L	.	8a/L	2ryy	2ryy
!	!	!LO:MO:mod=8cc#)	!	!	!	!	!	!	!	!	!	!	!	!	!	!
8AA/	.	8cc#\	.	8ee\)	.	.	.	.	.	.	.	8a/	.	8a/	.	.
!	!	!LO:MO:mod=8b(	!	!	!	!	!	!	!	!	!	!	!	!	!	!
8AA/	.	8b\	.	(8dd\	.	.	.	.	.	.	.	8a/	.	8a/	.	.
!	!	!LO:MO:mod=8ddJ)	!	!	!	!	!	!	!	!	!	!	!	!	!	!
8AA/J	.	8dd\J	.	8ff#\J)	.	.	.	.	.	.	.	8a/J	.	8a/J	.	.
!	!	!	!	!LO:LB:g=original	!	!	!	!	!	!	!	!	!	!	!	!
=163	=163	=163	=163	=163	=163	=163	=163	=163	=163	=163	=163	=163	=163	=163	=163	=163
8AA/L	.	8cc#\	.	8ee\	.	4r	.	.	4r	.	.	8a/L	.	8a/L	2ryy	2ryy
8AA/	.	4cc#\	.	4aa\	.	.	.	.	.	.	.	8a/	.	8a/	.	.
8AA/	.	.	.	.	.	8r	.	.	8r	.	.	8a/	.	8a/	.	.
8C#/J	.	8cc#\	.	8ee\	.	8c#\	e-	e-	8ee\	e-	e-	8a/J	.	8a/J	.	.
=164	=164	=164	=164	=164	=164	=164	=164	=164	=164	=164	=164	=164	=164	=164	=164	=164
4D\	.	4b\	.	4dd\	.	4B\	-lei-	-lei-	4dd\	-lei-	-lei-	4ee\	.	4ee\	2ryy	2ryy
4E\	.	4g#X/	.	4b\	.	4G#X/	.	.	4b\	-son	.	4ee\	.	4ee\	.	.
!LO:LB:g=original	!	!LO:LB:g=original	!	!	!	!	!	!	!	!	!	!	!	!	!	!
=165	=165	=165	=165	=165	=165	=165	=165	=165	=165	=165	=165	=165	=165	=165	=165	=165
4AA/	.	4a/	.	4cc#\	.	4A\	-son	-son	4cc#\	e-	-son	4a/	.	4ee\	2ryy	2ryy
4A\	.	4cc#\	.	4ee\	.	4A\	e-	e-	4cc#\	.	e-	4ee\	.	4ee\	.	.
=166	=166	=166	=166	=166	=166	=166	=166	=166	=166	=166	=166	=166	=166	=166	=166	=166
8AA/L	.	16cc#\LL	.	16aa\LL	.	2A\	-lei-	-lei-	2cc#\	-lei-	-lei-	8a/L	.	8ee\L	2ryy	2ryy
.	.	16cc#\	.	16aa\	.	.	.	.	.	.	.	.	.	.	.	.
8BB/	.	16cc#\	.	16aa\	.	.	.	.	.	.	.	16a/L	.	16ee\L	.	.
.	.	16cc#\JJ	.	16aa\JJ	.	.	.	.	.	.	.	16a/JJ	.	16ee\JJ	.	.
8C#/	.	16cc#\LL	.	16aa\LL	.	.	.	.	.	.	.	8a/L	.	8ee\L	.	.
.	.	16cc#\	.	16aa\	.	.	.	.	.	.	.	.	.	.	.	.
8D/J	.	16cc#\	.	16aa\	.	.	.	.	.	.	.	8a/J	.	8ee\J	.	.
.	.	16cc#\JJ	.	16aa\JJ	.	.	.	.	.	.	.	.	.	.	.	.
=167	=167	=167	=167	=167	=167	=167	=167	=167	=167	=167	=167	=167	=167	=167	=167	=167
8E\L	.	8b\L	.	8gg#X\L	.	4G#X/	-son	-son	4b\	-son	-son	4ee\	.	4ee\	2ryy	2ryy
8E\	.	8g#X\	.	8ee\	.	.	.	.	.	.	.	.	.	.	.	.
8G#X\	.	8b\	.	8gg#\	.	4G#/	e-	e-	4b\	e-	e-	4r	.	4r	.	.
8E\J	.	8g#\J	.	8ee\J	.	.	.	.	.	.	.	.	.	.	.	.
!	!	!	!	!	!	!LO:LB:g=original	!	!	!	!	!	!LO:LB:g=original	!	!	!	!
=168	=168	=168	=168	=168	=168	=168	=168	=168	=168	=168	=168	=168	=168	=168	=168	=168
8AA/L	.	16cc#\LL	.	16aa\LL	.	2A\	-lei-	-lei-	2cc#\	-lei-	-lei-	8a/L	.	8ee\L	2ryy	2ryy
.	.	16cc#\	.	16aa\	.	.	.	.	.	.	.	.	.	.	.	.
8BB/	.	16cc#\	.	16aa\	.	.	.	.	.	.	.	16a/L	.	16ee\L	.	.
.	.	16cc#\JJ	.	16aa\JJ	.	.	.	.	.	.	.	16a/JJ	.	16ee\JJ	.	.
8C#/	.	16cc#\LL	.	16aa\LL	.	.	.	.	.	.	.	8a/L	.	8ee\L	.	.
.	.	16cc#\	.	16aa\	.	.	.	.	.	.	.	.	.	.	.	.
8D/J	.	16cc#\	.	16aa\	.	.	.	.	.	.	.	8a/J	.	8ee\J	.	.
.	.	16cc#\JJ	.	16aa\JJ	.	.	.	.	.	.	.	.	.	.	.	.
!	!	!	!	!	!	!	!	!	!LO:LB:g=original	!	!	!	!	!	!	!
=169	=169	=169	=169	=169	=169	=169	=169	=169	=169	=169	=169	=169	=169	=169	=169	=169
4E\	.	4b\	.	4gg#X\	.	4G#X/	-son	-son	4b\	-son	-son	4ee\	.	4ee\	2ryy	2ryy
8E\L	.	16dd\LL	.	16gg#\LL	.	4B\	e-	e-	4dd\	e-	e-	4r	.	4r	.	.
.	.	16dd\	.	16gg#\	.	.	.	.	.	.	.	.	.	.	.	.
8F#\J	.	16dd\	.	16gg#\	.	.	.	.	.	.	.	.	.	.	.	.
.	.	16dd\JJ	.	16gg#\JJ	.	.	.	.	.	.	.	.	.	.	.	.
=170	=170	=170	=170	=170	=170	=170	=170	=170	=170	=170	=170	=170	=170	=170	=170	=170
!	!	!	!	!LO:SIC:v:s=16gg#LL	!	!	!	!	!	!	!	!	!	!	!	!
8G#X\L	.	16dd\LL	.	16gg\LL	.	2B\	-lei-	-lei-	2dd\	-lei-	-lei-	8ee\L	.	8ee\L	2ryy	2ryy
!	!	!	!	!LO:SIC:v:s=16gg#	!	!	!	!	!	!	!	!	!	!	!	!
.	.	16dd\	.	16gg\	.	.	.	.	.	.	.	.	.	.	.	.
!	!	!	!	!LO:SIC:v:s=16gg#	!	!	!	!	!	!	!	!	!	!	!	!
8A\	.	16dd\	.	16gg\	.	.	.	.	.	.	.	16ee\L	.	16ee\L	.	.
!	!	!	!	!LO:SIC:v:s=16gg#JJ	!	!	!	!	!	!	!	!	!	!	!	!
.	.	16dd\JJ	.	16gg\JJ	.	.	.	.	.	.	.	16ee\JJ	.	16ee\JJ	.	.
!	!	!	!	!LO:SIC:v:s=16gg#LL	!	!	!	!	!	!	!	!	!	!	!	!
8B\	.	16dd\LL	.	16gg\LL	.	.	.	.	.	.	.	8ee\L	.	8ee\L	.	.
!	!	!	!	!LO:SIC:v:s=16gg#	!	!	!	!	!	!	!	!	!	!	!	!
.	.	16dd\	.	16gg\	.	.	.	.	.	.	.	.	.	.	.	.
!	!	!	!	!LO:SIC:v:s=16gg#	!	!	!	!	!	!	!	!	!	!	!	!
8E\J	.	16dd\	.	16gg\	.	.	.	.	.	.	.	8ee\J	.	8ee\J	.	.
!	!	!	!	!LO:SIC:v:s=16gg#JJ	!	!	!	!	!	!	!	!	!	!	!	!
.	.	16dd\JJ	.	16gg\JJ	.	.	.	.	.	.	.	.	.	.	.	.
=171	=171	=171	=171	=171	=171	=171	=171	=171	=171	=171	=171	=171	=171	=171	=171	=171
!	!	!	!	!LO:TX:a:t=P:problem=mixed beam	!	!	!	!	!	!	!	!	!	!	!	!
4A\	.	4cc#\	.	8aa\L	.	4A\	-son	-son	4cc#\	-son	-son	4a/	.	4ee\	2ryy	2ryy
.	.	.	.	8a/J	.	.	.	.	.	.	.	.	.	.	.	.
!	!	!	!	!LO:TX:a:t=P:problem=mixed beam	!	!	!	!	!	!	!	!LO:N:vis=4	!	!	!	!
4A\	.	4cc#\	.	16ee\LL	.	4A\	e-	e-	4cc#\	e-	e-	8r	.	4r	.	.
.	.	.	.	16e/	.	.	.	.	.	.	.	.	.	.	.	.
!	!	!	!	!	!	!	!	!	!	!	!	!LO:N:vis=2	!	!	!	!
.	.	.	.	16ee\	.	.	.	.	.	.	.	8r	.	.	.	.
.	.	.	.	16e/JJ	.	.	.	.	.	.	.	.	.	.	.	.
=172	=172	=172	=172	=172	=172	=172	=172	=172	=172	=172	=172	=172	=172	=172	=172	=172
!	!	!	!	!LO:TX:a:t=P:problem=mixed beam	!	!	!	!	!	!	!	!LO:N:vis=00	!	!LO:N:vis=00	!	!
8G#X\L	.	16b\LL	.	16ee\LL	.	8G#X\L	-lei-	-lei-	8b\L	-lei-	-lei-	0r	.	0r	2ryy	2ryy
.	.	16b\	.	16e/	.	.	.	.	.	.	.	.	.	.	.	.
8F#\	.	16a\	.	16ee\	.	8A\	.	.	8a\J	.	.	.	.	.	.	.
.	.	16a\JJ	.	16e/JJ	.	.	.	.	.	.	.	.	.	.	.	.
!	!	!	!	!LO:TX:a:t=P:problem=mixed beam	!	!	!	!	!	!	!	!	!	!	!	!
8E\	.	16g#X/LL	.	16ee\LL	.	8B\	.	.	8g#X\	-son	-son	.	.	.	.	.
.	.	16g#/	.	16e/	.	.	.	.	.	.	.	.	.	.	.	.
8D#X\J	.	16f#/	.	16ee\	.	8A\J	.	.	8f#/	e-	e-	.	.	.	.	.
.	.	16f#/JJ	.	16e/JJ	.	.	.	.	.	.	.	.	.	.	.	.
=173	=173	=173	=173	=173	=173	=173	=173	=173	=173	=173	=173	=173	=173	=173	=173	=173
!	!	!LO:SIC:v:s=16g#LL	!	!LO:TX:a:t=P:problem=mixed beam	!	!	!	!	!	!	!	!	!	!	!	!
8E\L	.	16g/LL	.	16ee\LL	.	8G#X/L	.	.	8g#X\L	-lei-	-lei-	.	.	.	2ryy	2ryy
!	!	!LO:SIC:v:s=16g#	!	!	!	!	!	!	!	!	!	!	!	!	!	!
.	.	16g/	.	16e/	.	.	.	.	.	.	.	.	.	.	.	.
8F#\	.	16a/	.	16ee\	.	8F#/J	.	.	8a\J	.	.	.	.	.	.	.
.	.	16a/JJ	.	16e/JJ	.	.	.	.	.	.	.	.	.	.	.	.
!	!	!	!	!LO:TX:a:t=P:problem=mixed beam	!	!	!	!	!	!	!	!	!	!	!	!
8G#X\	.	16b\LL	.	16ee\LL	.	8E/	-son	-son	8b\	-son	-son	.	.	.	.	.
.	.	16b\	.	16e/	.	.	.	.	.	.	.	.	.	.	.	.
8A\J	.	16cc#\	.	16ee\	.	8A\	e-	e-	8cc#\	e-	e-	.	.	.	.	.
.	.	16cc#\JJ	.	16e/JJ	.	.	.	.	.	.	.	.	.	.	.	.
=174	=174	=174	=174	=174	=174	=174	=174	=174	=174	=174	=174	=174	=174	=174	=174	=174
!	!	!	!	!LO:TX:a:t=P:problem=mixed beam	!	!	!	!	!	!	!	!	!	!	!	!
8G#X\L	.	16b\LL	.	16ee\LL	.	8G#X\L	-lei-	-lei-	8b\L	-lei-	-lei-	.	.	.	2ryy	2ryy
.	.	16b\	.	16e/	.	.	.	.	.	.	.	.	.	.	.	.
8F#\	.	16a\	.	16ee\	.	8A\	.	.	8a\	.	.	.	.	.	.	.
.	.	16a\JJ	.	16e/JJ	.	.	.	.	.	.	.	.	.	.	.	.
!	!	!	!	!LO:TX:a:t=P:problem=mixed beam	!	!	!	!	!	!	!	!	!	!	!	!
8E\	.	16g#X/LL	.	16ee\LL	.	8B\	.	.	8g#X\	.	.	.	.	.	.	.
.	.	16g#/	.	16e/	.	.	.	.	.	.	.	.	.	.	.	.
8D#X\J	.	16f#/	.	16ee\	.	8A\J	.	.	8f#\J	.	.	.	.	.	.	.
.	.	16f#/JJ	.	16e/JJ	.	.	.	.	.	.	.	.	.	.	.	.
=175	=175	=175	=175	=175	=175	=175	=175	=175	=175	=175	=175	=175	=175	=175	=175	=175
!	!	!LO:SIC:v:s=8g#L	!	!LO:TX:a:t=P:problem=mixed beam	!	!	!	!	!LO:SIC:v:s=4g#	!	!	!	!	!	!	!
8E\L	.	8g/L	.	8ee\L	.	8G#X/L	.	.	4g\	-son	-son	.	.	.	2ryy	2ryy
!	!	!LO:SIC:v:s=8g#J	!	!	!	!	!	!	!	!	!	!	!	!	!	!
8E\	.	8g/J	.	8e/J	.	8F#/J	.	.	.	.	.	.	.	.	.	.
!	!	!LO:SIC:v:s=8g#L	!	!LO:TX:a:t=P:problem=mixed beam	!	!	!	!	!	!	!	!	!	!	!	!
8E\	.	8g/L	.	16dd\LL	.	8E/	-son	-son	4dd\	e-	e-	.	.	.	.	.
.	.	.	.	16d/	.	.	.	.	.	.	.	.	.	.	.	.
8Gn\J	.	16b/L	.	16dd\	.	8B\	e-	e-	.	.	.	.	.	.	.	.
.	.	16b/JJ	.	16d/JJ	.	.	.	.	.	.	.	.	.	.	.	.
!	!	!LO:LB:g=original	!	!	!	!	!	!	!	!	!	!	!	!	!	!
=176	=176	=176	=176	=176	=176	=176	=176	=176	=176	=176	=176	=176	=176	=176	=176	=176
!	!	!	!	!LO:TX:a:t=P:problem=mixed beam	!	!	!	!	!	!	!	!LO:N:vis=0	!	!LO:N:vis=0	!	!
8F#\L	.	16a/LL	.	16dd\LL	.	8A\L	.	.	2dd\	-lei-	-lei-	1r	.	1r	2ryy	2ryy
.	.	16a/	.	16d/	.	.	.	.	.	.	.	.	.	.	.	.
8E\	.	16gn/	.	16dd\	.	8G\	.	.	.	.	.	.	.	.	.	.
.	.	16g/JJ	.	16d/JJ	.	.	.	.	.	.	.	.	.	.	.	.
!	!	!	!	!LO:TX:a:t=P:problem=mixed beam	!	!	!	!	!	!	!	!	!	!	!	!
8D\	.	16f#/LL	.	16dd\LL	.	8F#\	.	.	.	.	.	.	.	.	.	.
.	.	16f#/	.	16d/	.	.	.	.	.	.	.	.	.	.	.	.
8C#\J	.	16e/	.	16dd\	.	8E\J	.	.	.	.	.	.	.	.	.	.
.	.	16e/JJ	.	16d/JJ	.	.	.	.	.	.	.	.	.	.	.	.
!	!	!	!	!LO:LB:g=original	!	!	!	!	!	!	!	!	!	!	!	!
=177	=177	=177	=177	=177	=177	=177	=177	=177	=177	=177	=177	=177	=177	=177	=177	=177
!	!	!	!	!LO:TX:a:t=P:problem=mixed beam	!	!	!	!	!	!	!	!	!	!	!	!
8D\L	.	16f#/LL	.	16dd\LL	.	8F#/L	.	.	4dd\	-son	-son	.	.	.	2ryy	2ryy
.	.	16f#/	.	16d/	.	.	.	.	.	.	.	.	.	.	.	.
8E\	.	16g/	.	16dd\	.	8G/J	.	.	.	.	.	.	.	.	.	.
.	.	16g/JJ	.	16d/JJ	.	.	.	.	.	.	.	.	.	.	.	.
!	!	!	!	!LO:TX:a:t=P:problem=mixed beam	!	!	!	!	!	!	!	!	!	!	!	!
8F#\	.	16a/LL	.	16dd\LL	.	8A\	son	son	4dd\	e-	e-	.	.	.	.	.
.	.	16a/	.	16d/	.	.	.	.	.	.	.	.	.	.	.	.
8G\J	.	16b/	.	16dd\	.	8B\	e-	e-	.	.	.	.	.	.	.	.
.	.	16b/JJ	.	16d/JJ	.	.	.	.	.	.	.	.	.	.	.	.
=178	=178	=178	=178	=178	=178	=178	=178	=178	=178	=178	=178	=178	=178	=178	=178	=178
!	!	!	!	!LO:TX:t=P:problem=w źródle takt 155 zapisany jako repetycja taktu 154	!	!	!	!	!	!	!	!	!	!	!	!
!	!	!	!	!LO:TX:a:t=P:problem=mixed beam	!	!	!	!	!	!	!	!	!	!	!	!
8F#\L	.	16a/LL	.	16dd\LLyy	.	8A\L	-lei	-lei	2dd\	-lei-	-lei-	2r	.	2r	2ryy	2ryy
.	.	16a/	.	16d/yy	.	.	.	.	.	.	.	.	.	.	.	.
!	!	!	!	!LO:TX:a:t=bis	!	!	!	!	!	!	!	!	!	!	!	!
8E\	.	16g/	.	16dd\yy	.	8G\	.	.	.	.	.	.	.	.	.	.
.	.	16g/JJ	.	16d/JJyy	.	.	.	.	.	.	.	.	.	.	.	.
!	!	!	!	!LO:TX:a:t=P:problem=mixed beam	!	!	!	!	!	!	!	!	!	!	!	!
8D\	.	16f#/LL	.	16dd\LLyy	.	8F#\	.	.	.	.	.	.	.	.	.	.
.	.	16f#/	.	16d/yy	.	.	.	.	.	.	.	.	.	.	.	.
8C#\J	.	16e/	.	16dd\yy	.	8E\J	.	.	.	.	.	.	.	.	.	.
.	.	16e/JJ	.	16d/JJyy	.	.	.	.	.	.	.	.	.	.	.	.
=179	=179	=179	=179	=179	=179	=179	=179	=179	=179	=179	=179	=179	=179	=179	=179	=179
8D\L	.	16f#/LL	.	16dd\LL	.	4F#/	-son	-son	4dd\	-son	-son	8r	.	8r	2ryy	2ryy
!	!	!LO:TX:a:t=P:problem=mixed beam	!	!	!	!	!	!	!	!	!	!	!	!	!	!
.	.	16dd\	.	16ff#\	.	.	.	.	.	.	.	.	.	.	.	.
8E\	.	16dd\	.	16ff#\	.	.	.	.	.	.	.	8dd\L	.	8ff#\L	.	.
.	.	16dd\JJ	.	16ff#\JJ	.	.	.	.	.	.	.	.	.	.	.	.
8F#\	.	16dd\LL	.	16ff#\LL	.	4d\	e-	e-	4ff#\	e-	e-	8dd\	.	8ff#\	.	.
.	.	16dd\	.	16ff#\	.	.	.	.	.	.	.	.	.	.	.	.
8G\J	.	16dd\	.	16ff#\	.	.	.	.	.	.	.	8dd\J	.	8ff#\J	.	.
.	.	16dd\JJ	.	16ff#\JJ	.	.	.	.	.	.	.	.	.	.	.	.
=180	=180	=180	=180	=180	=180	=180	=180	=180	=180	=180	=180	=180	=180	=180	=180	=180
8A\L	.	16cc#\LL	.	16ee\LL	.	4c#\	-lei-	-lei-	4ee\	-lei-	-lei-	4a/	.	4ee\	2ryy	2ryy
.	.	16cc#\	.	16ee\	.	.	.	.	.	.	.	.	.	.	.	.
8G\	.	16cc#\	.	16ee\	.	.	.	.	.	.	.	.	.	.	.	.
.	.	16cc#\JJ	.	16ee\JJ	.	.	.	.	.	.	.	.	.	.	.	.
8F#\	.	16dd\LL	.	16ff#\LL	.	8d\	-son	-son	8ff#\	.	.	4ee\	.	4ff#\	.	.
.	.	16dd\	.	16ff#\	.	.	.	.	.	.	.	.	.	.	.	.
8G\J	.	16dd\	.	16ff#\	.	8d\	-e-	-e-	8ff#\	-son	-son	.	.	.	.	.
.	.	16dd\JJ	.	16ff#\JJ	.	.	.	.	.	.	.	.	.	.	.	.
!	!	!	!	!	!	!LO:LB:g=original	!	!	!LO:LB:g=original	!	!	!	!	!	!	!
=181	=181	=181	=181	=181	=181	=181	=181	=181	=181	=181	=181	=181	=181	=181	=181	=181
4A\	.	4cc#\	.	4ee\	.	2c#\	-lei-	-lei-	2ee\	e-	e-	4a/	.	4ee\	2ryy	2ryy
4AA/	.	4cc#\	.	4ee\	.	.	.	.	.	.	.	4a/	.	4ee\	.	.
!	!	!	!	!	!	!	!	!	!	!	!	!	!	!LO:LB:g=original	!	!
=182	=182	=182	=182	=182	=182	=182	=182	=182	=182	=182	=182	=182	=182	=182	=182	=182
!LO:TX:a:t=P:problem=mixed beam	!	!	!	!	!	!	!	!	!	!	!	!	!	!	!	!
8D/L	.	4dd\	.	4ff#\	.	8d\	-son	-son	4ff#\	-lei-	-lei-	4dd\	.	4ff#\	2ryy	2ryy
16d\L	.	.	.	.	.	16f#\LL	e-	e-	.	.	.	.	.	.	.	.
16c#\JJ	.	.	.	.	.	16e\JJ	.	.	.	.	.	.	.	.	.	.
8B\L	.	4r	.	4r	.	8d\L	-lei	-lei	8r	.	.	4r	.	4r	.	.
!	!	!	!	!	!	!LO:SIC:v:s=8c#J	!	!	!	!	!	!	!	!	!	!
8A\J	.	.	.	.	.	8B\J	.	.	8dd\	-son	-son	.	.	.	.	.
=183	=183	=183	=183	=183	=183	=183	=183	=183	=183	=183	=183	=183	=183	=183	=183	=183
8G\L	.	8r	.	8r	.	8B\L	.	.	2dd\	e-	e-	4dd\	.	4ff#\	2ryy	2ryy
16B\L	.	16ddd\LL	.	16ddd\LL	.	16d\L	.	.	.	.	.	.	.	.	.	.
16A\JJ	.	16ccc#\JJ	.	16ccc#\JJ	.	16c#\JJ	.	.	.	.	.	.	.	.	.	.
8G\L	.	8bb\L	.	8bb\L	.	8B\L	.	.	.	.	.	4r	.	4r	.	.
8F#\J	.	8aa\J	.	8aa\J	.	8A\J	.	.	.	.	.	.	.	.	.	.
!LO:LB:g=original	!	!	!	!	!	!	!	!	!	!	!	!	!	!	!	!
=184	=184	=184	=184	=184	=184	=184	=184	=184	=184	=184	=184	=184	=184	=184	=184	=184
!	!	!	!	!	!	!	!	!	!	!	!	!LO:SIC:v:s=4ee	!	!LO:SIC:v:s=4ee	!	!
8E\L	.	8gg\L	.	8gg\L	.	8G\L	.	.	2dd\	-lei-	-lei-	4dd\	.	4ff#\	2ryy	2ryy
16G\L	.	16bb\L	.	16bb\L	.	16B\L	.	.	.	.	.	.	.	.	.	.
16F#\JJ	.	16aa\JJ	.	16aa\JJ	.	16A\JJ	.	.	.	.	.	.	.	.	.	.
8E\L	.	8gg\L	.	8gg\L	.	8G/L	.	.	.	.	.	4r	.	4r	.	.
8D\J	.	8ff#\J	.	8ff#\J	.	8F#/J	.	.	.	.	.	.	.	.	.	.
=185	=185	=185	=185	=185	=185	=185	=185	=185	=185	=185	=185	=185	=185	=185	=185	=185
4A\	.	4ee 4cc# 4a/	.	4ee 4cc# 4a/	.	4c#\	-son	-son	4ee\	-son	-son	4a/	.	4ee\	2ryy	2ryy
!	!	!	!	!	!	!	!	!	!	!	!	!LO:SIC:v:s=4dd	!	!	!	!
8F#\L	.	4ff# 4a 4d/	.	4ff# 4a 4d/	.	4d\	e-	e-	4ff#\	e-	e-	4ee\	.	4ff#\	.	.
8G\J	.	.	.	.	.	.	.	.	.	.	.	.	.	.	.	.
=186	=186	=186	=186	=186	=186	=186	=186	=186	=186	=186	=186	=186	=186	=186	=186	=186
4A\	.	4ee 4cc# 4a/	.	4ee 4cc# 4a/	.	2c#\	-lei-	-lei-	2ee\	-lei-	-lei-	4a/	.	4ee\	2ryy	2ryy
4AA/	.	4ee 4cc# 4a/	.	4ee 4cc# 4a/	.	.	.	.	.	.	.	4a/	.	4ee\	.	.
=187	=187	=187	=187	=187	=187	=187	=187	=187	=187	=187	=187	=187	=187	=187	=187	=187
4D/	.	4ff# 4a 4d/	.	4ff# 4a 4d/	.	4d\	-son	-son	4dd\	-son	-son	4dd\	.	4ff#\	2ryy	2ryy
4d\	.	4a/	.	4ff#\	.	4d\	e-	e-	4ff#\	e-	e-	4dd\	.	4ff#\	.	.
!	!	!LO:LB:g=original	!	!	!	!	!	!	!	!	!	!	!	!	!	!
=188	=188	=188	=188	=188	=188	=188	=188	=188	=188	=188	=188	=188	=188	=188	=188	=188
8D\L	.	16dd\LL	.	16ff#\LL	.	2d\	-lei-	-lei-	2ff#\	-lei-	-lei-	8dd\L	.	8ff#\L	2ryy	2ryy
.	.	16cc#\	.	16ee\	.	.	.	.	.	.	.	.	.	.	.	.
8E\	.	16dd\	.	16ff#\	.	.	.	.	.	.	.	16dd\L	.	16ff#\L	.	.
.	.	16ff#\JJ	.	16ddd\JJ	.	.	.	.	.	.	.	16dd\JJ	.	16ff#\JJ	.	.
8F#\	.	16dd\LL	.	16ff#\LL	.	.	.	.	.	.	.	8dd\L	.	8ff#\L	.	.
.	.	16cc#\	.	16ee\	.	.	.	.	.	.	.	.	.	.	.	.
8G\J	.	16dd\	.	16ff#\	.	.	.	.	.	.	.	8dd\J	.	8ff#\J	.	.
.	.	16ff#\JJ	.	16ddd\JJ	.	.	.	.	.	.	.	.	.	.	.	.
=189	=189	=189	=189	=189	=189	=189	=189	=189	=189	=189	=189	=189	=189	=189	=189	=189
4A\	.	4cc#\	.	4ee\	.	4c#\	-son	-son	4ee\	-son	-son	4a/	.	4ee\	2ryy	2ryy
4AA/	.	4cc#\	.	4ee\	.	4c#\	e-	e-	4ee\	e-	e-	4a/	.	4ee\	.	.
=190	=190	=190	=190	=190	=190	=190	=190	=190	=190	=190	=190	=190	=190	=190	=190	=190
8D\L	.	16dd\LL	.	16ff#\LL	.	2d\	-lei-	-lei-	2ff#\	-lei-	-lei-	8dd\L	.	8ff#\L	2ryy	2ryy
.	.	16cc#\	.	16ee\	.	.	.	.	.	.	.	.	.	.	.	.
8E\	.	16dd\	.	16ff#\	.	.	.	.	.	.	.	16dd\L	.	16ff#\L	.	.
.	.	16ff#\JJ	.	16ddd\JJ	.	.	.	.	.	.	.	16dd\JJ	.	16ff#\JJ	.	.
8F#\	.	16dd\LL	.	16ff#\LL	.	.	.	.	.	.	.	8dd\L	.	8ff#\L	.	.
.	.	16cc#\	.	16ee\	.	.	.	.	.	.	.	.	.	.	.	.
8G\J	.	16dd\	.	16ff#\	.	.	.	.	.	.	.	8dd\J	.	8ff#\J	.	.
.	.	16ff#\JJ	.	16ddd\JJ	.	.	.	.	.	.	.	.	.	.	.	.
=191	=191	=191	=191	=191	=191	=191	=191	=191	=191	=191	=191	=191	=191	=191	=191	=191
4A\	.	4cc#\	.	8ee\L	.	4c#\	-son	-son	4ee\	-son	-son	4a/	.	4ee\	2ryy	2ryy
.	.	.	.	8a\J	.	.	.	.	.	.	.	.	.	.	.	.
8A\L	.	16ee\LL	.	16aa\LL	.	4c#\	e-	e-	4ee\	e-	e-	8a/L	.	8ee\L	.	.
.	.	16ee\	.	16aa\	.	.	.	.	.	.	.	.	.	.	.	.
8G#X\J	.	16ee\	.	16aa\	.	.	.	.	.	.	.	8a/J	.	8ee\J	.	.
.	.	16ee\JJ	.	16aa\JJ	.	.	.	.	.	.	.	.	.	.	.	.
!	!	!	!	!LO:LB:g=original	!	!	!	!	!	!	!	!LO:LB:g=original	!	!	!	!
=192	=192	=192	=192	=192	=192	=192	=192	=192	=192	=192	=192	=192	=192	=192	=192	=192
8A\L	.	16ee\LL	.	16aa\LL	.	4c#\	-lei	-lei	4ee\	-lei	-lei	4a/	.	4ee\	2ryy	2ryy
.	.	16ee\	.	16aa\	.	.	.	.	.	.	.	.	.	.	.	.
8B\	.	16ee\	.	16aa\	.	.	.	.	.	.	.	.	.	.	.	.
.	.	16ee\JJ	.	16aa\JJ	.	.	.	.	.	.	.	.	.	.	.	.
8c#\	.	16ee\LL	.	16aa\LL	.	8c#\	son	son	8ee\	son	son	8a/L	.	8ee\L	.	.
.	.	16ee\	.	16aa\	.	.	.	.	.	.	.	.	.	.	.	.
8d\J	.	16ee\	.	16aa\	.	8c#\	e-	e-	8ee\	e-	e-	8a/J	.	8ee\J	.	.
.	.	16ee\JJ	.	16aa\JJ	.	.	.	.	.	.	.	.	.	.	.	.
=193	=193	=193	=193	=193	=193	=193	=193	=193	=193	=193	=193	=193	=193	=193	=193	=193
8e\L	.	16gg\LL	.	16ccc#\LL	.	2e\	-lei-	-lei-	2gg\	-lei-	-lei-	8a/L	.	8ee\L	2ryy	2ryy
.	.	16gg\	.	16ccc#\	.	.	.	.	.	.	.	.	.	.	.	.
8d\	.	16gg\	.	16ccc#\	.	.	.	.	.	.	.	16a/L	.	16ee\L	.	.
.	.	16gg\JJ	.	16ccc#\JJ	.	.	.	.	.	.	.	16a/JJ	.	16ee\JJ	.	.
8c#\	.	16gg\LL	.	16ccc#\LL	.	.	.	.	.	.	.	8a/L	.	8ee\L	.	.
.	.	16gg\	.	16ccc#\	.	.	.	.	.	.	.	.	.	.	.	.
8A\J	.	16gg\	.	16ccc#\	.	.	.	.	.	.	.	8a/J	.	8ee\J	.	.
.	.	16gg\JJ	.	16ccc#\JJ	.	.	.	.	.	.	.	.	.	.	.	.
=194	=194	=194	=194	=194	=194	=194	=194	=194	=194	=194	=194	=194	=194	=194	=194	=194
8d\L	.	4ff#\	.	4ddd\	.	8d\	-son	-son	4ff#\	-son	-son	4dd\	.	4ff#\	2ryy	2ryy
16d\L	.	.	.	.	.	16f#\LL	e-	e-	.	.	.	.	.	.	.	.
16c#\JJ	.	.	.	.	.	16e\JJ	.	.	.	.	.	.	.	.	.	.
8B\L	.	4r	.	4r	.	8d\L	-lei-	-lei-	4dd\	e-	e-	4r	.	4r	.	.
8A\J	.	.	.	.	.	8c#\J	.	.	.	.	.	.	.	.	.	.
!	!	!	!	!	!	!LO:LB:g=original	!	!	!LO:LB:g=original	!	!	!	!	!	!	!
=195	=195	=195	=195	=195	=195	=195	=195	=195	=195	=195	=195	=195	=195	=195	=195	=195
8G\L	.	8r	.	8r	.	8B\L	.	.	2dd\	-lei-	-lei-	4dd\	.	4ff#\	2ryy	2ryy
16B\L	.	16ddd\LL	.	16ddd\LL	.	16d\L	.	.	.	.	.	.	.	.	.	.
16A\JJ	.	16ccc#\JJ	.	16ccc#\JJ	.	16c#\JJ	.	.	.	.	.	.	.	.	.	.
8G\L	.	8bb\L	.	8bb\L	.	8B\L	.	.	.	.	.	4r	.	4r	.	.
8F#\J	.	8aa\J	.	8aa\J	.	8A\J	.	.	.	.	.	.	.	.	.	.
=196	=196	=196	=196	=196	=196	=196	=196	=196	=196	=196	=196	=196	=196	=196	=196	=196
!	!	!	!	!	!	!	!	!	!	!	!	!LO:SIC:v:s=4ee	!	!LO:SIC:v:s=4ee	!	!
8E\L	.	8gg\L	.	8gg\L	.	8G\L	.	.	2dd\	-son	.	4dd\	.	4ff#\	2ryy	2ryy
16G\L	.	16bb\L	.	16bb\L	.	16B\L	.	.	.	.	.	.	.	.	.	.
16F#\JJ	.	16aa\JJ	.	16aa\JJ	.	16A\JJ	.	.	.	.	.	.	.	.	.	.
8E\L	.	8gg\L	.	8gg\L	.	8G/L	.	.	.	.	.	4r	.	4r	.	.
8D\J	.	8ff#\J	.	8ff#\J	.	8F#/J	.	.	.	.	.	.	.	.	.	.
=197	=197	=197	=197	=197	=197	=197	=197	=197	=197	=197	=197	=197	=197	=197	=197	=197
4A\	.	4ee 4cc# 4a/	.	4ee 4cc# 4a/	.	4c#\	-son	-son	4ee\	e-	-son	4a/	.	4ee\	2ryy	2ryy
8F#\L	.	4ff# 4a 4d/	.	4ff# 4a 4d/	.	4d\	e-	e-	4ff#\	-lei-	e-	4dd\	.	4ff#\	.	.
8G\J	.	.	.	.	.	.	.	.	.	.	.	.	.	.	.	.
=198	=198	=198	=198	=198	=198	=198	=198	=198	=198	=198	=198	=198	=198	=198	=198	=198
4A\	.	4ee 4cc# 4a/	.	4ee 4cc# 4a/	.	4c#\	-lei-	-lei-	4ee\	-son	-lei-	4a/	.	4ee\	2ryy	2ryy
4AA/	.	4ee 4cc# 4a/	.	4ee 4cc# 4a/	.	4c#\	-son	-son	4ee\	e-	-son	4a/	.	4ee\	.	.
=199	=199	=199	=199	=199	=199	=199	=199	=199	=199	=199	=199	=199	=199	=199	=199	=199
4D\	.	4ff# 4a 4d/	.	4ff# 4a 4d/	.	4d\	ki-	ky-	4ff#\	-lei-	ky-	4dd\	.	4ff#\	2ryy	2ryy
4D\	.	4ff# 4a 4d/	.	4ff# 4a 4d/	.	4d\	-ri-	-ri-	4ff#\	.	-ri-	4dd\	.	4ff#\	.	.
!	!	!	!	!	!	!	!	!	!	!	!	!	!	!LO:LB:g=original	!	!
=200	=200	=200	=200	=200	=200	=200	=200	=200	=200	=200	=200	=200	=200	=200	=200	=200
4D\	.	4ff# 4a 4d/	.	4ff# 4a 4d/	.	4d\	-e	-e	4ff#\	-son	-e	4dd\	.	4ff#\	2ryy	2ryy
4r	.	8r	.	8r	.	4r	.	.	4r	.	.	4r	.	4r	.	.
.	.	8dd\	.	8dd\	.	.	.	.	.	.	.	.	.	.	.	.
!LO:LB:g=original	!	!LO:LB:g=original	!	!	!	!	!	!	!	!	!	!	!	!	!	!
=201	=201	=201	=201	=201	=201	=201	=201	=201	=201	=201	=201	=201	=201	=201	=201	=201
!	!	!LO:MO:mod=8ddL(	!	!LO:MO:mod=8ff#L(	!	!LO:N:vis=0	!	!	!LO:N:vis=0	!	!	!	!	!	!	!
8D\L	.	8dd\L	.	8ff#\L	.	1r	.	.	1r	.	.	8dd\L	.	8dd\L	2ryy	2ryy
!	!	!LO:MO:mod=8ff#)	!	!LO:MO:mod=8aa)	!	!	!	!	!	!	!	!	!	!	!	!
8D\	.	8ff#\	.	8aa\	.	.	.	.	.	.	.	8dd\	.	8dd\	.	.
!	!	!LO:MO:mod=8ee(	!	!LO:MO:mod=8gg(	!	!	!	!	!	!	!	!	!	!	!	!
8D\	.	8ee\	.	8gg\	.	.	.	.	.	.	.	8dd\	.	8dd\	.	.
!	!	!LO:MO:mod=8ggJ)	!	!LO:MO:mod=8bbJ)	!	!	!	!	!	!	!	!	!	!	!	!
8D\J	.	8gg\J	.	8bb\J	.	.	.	.	.	.	.	8dd\J	.	8dd\J	.	.
=202	=202	=202	=202	=202	=202	=202	=202	=202	=202	=202	=202	=202	=202	=202	=202	=202
8D\L	.	8ff#\	.	8aa\	.	.	.	.	.	.	.	8dd\L	.	8dd\L	2ryy	2ryy
8D\	.	4ff#\	.	4ddd\	.	.	.	.	.	.	.	8dd\	.	8dd\	.	.
8D\	.	.	.	.	.	.	.	.	.	.	.	8dd\	.	8dd\	.	.
8D\J	.	8dd\	.	8dd\	.	.	.	.	.	.	.	8dd\J	.	8dd\J	.	.
=203	=203	=203	=203	=203	=203	=203	=203	=203	=203	=203	=203	=203	=203	=203	=203	=203
!	!	!LO:MO:mod=8ddL(	!	!	!	!	!	!	!	!	!	!	!	!	!	!
8D\L	.	8dd\L	.	(8ff#\L	.	2r	.	.	2r	.	.	8dd\L	.	8dd\L	2ryy	2ryy
!	!	!LO:MO:mod=8ff#)	!	!	!	!	!	!	!	!	!	!	!	!	!	!
8D\	.	8ff#\	.	8aa\)	.	.	.	.	.	.	.	8dd\	.	8dd\	.	.
!	!	!LO:MO:mod=8ee(	!	!	!	!	!	!	!	!	!	!	!	!	!	!
8D\	.	8ee\	.	(8gg\	.	.	.	.	.	.	.	8dd\	.	8dd\	.	.
!	!	!LO:MO:mod=8ggJ)	!	!	!	!	!	!	!	!	!	!	!	!	!	!
8D\J	.	8gg\J	.	8bb\J)	.	.	.	.	.	.	.	8dd\J	.	8dd\J	.	.
=204	=204	=204	=204	=204	=204	=204	=204	=204	=204	=204	=204	=204	=204	=204	=204	=204
8D\L	.	8ff#\	.	8aa\	.	4r	.	.	4r	.	.	8dd\L	.	8dd\L	2ryy	2ryy
8D\	.	4ff#\	.	4ddd\	.	.	.	.	.	.	.	8dd\	.	8dd\	.	.
8D\	.	.	.	.	.	8r	.	.	8r	.	.	8dd\	.	8dd\	.	.
8F#\J	.	8ff#\	.	8aa\	.	8d\	e-	e-	8ff#\	e-	e-	8dd\J	.	8ff#\J	.	.
=205	=205	=205	=205	=205	=205	=205	=205	=205	=205	=205	=205	=205	=205	=205	=205	=205
!	!	!	!	!	!	!	!	!	!LO:MO:mod=4gg(	!	!	!	!	!	!	!
4G\	.	4ee\	.	4gg\	.	(4e\	-lei-	-lei-	4gg\	-lei-	-lei-	4ee\	.	4gg\	2ryy	2ryy
!LO:SIC:v:s=4A	!	!	!	!	!	!	!	!	!LO:MO:mod=4ee)	!	!	!	!	!	!	!
4B\	.	4cc#\	.	4ee\	.	4c#\)	.	.	4ee\	.	.	4a/	.	4ee\	.	.
!	!	!	!	!LO:LB:g=original	!	!	!	!	!	!	!	!	!	!	!	!
=206	=206	=206	=206	=206	=206	=206	=206	=206	=206	=206	=206	=206	=206	=206	=206	=206
!LO:TX:a:t=P:problem=mixed beam	!	!	!	!LO:TX:a:t=P:problem=mixed beam	!	!	!	!	!	!	!	!	!	!	!	!
8D/L	.	8dd\L	.	16dd\LL	.	8d\L	-son	-son	4ff#\	-son	-son	4dd\	.	4ff#\	2ryy	2ryy
.	.	.	.	16d/	.	.	.	.	.	.	.	.	.	.	.	.
8d\	.	16ff#\L	.	16dd\	.	8f#\J	e-	.	.	.	.	.	.	.	.	.
.	.	16ff#\JJ	.	16d/JJ	.	.	.	.	.	.	.	.	.	.	.	.
!LO:SIC:v:s=8B	!	!	!	!LO:TX:a:t=P:problem=mixed beam	!	!	!	!	!	!	!	!	!	!	!	!
8c#\	.	16dd\LL	.	16dd\LL	.	8d\L	-lei-	e-	4dd\	e-	e-	4r	.	4r	.	.
.	.	16dd\	.	16d/	.	.	.	.	.	.	.	.	.	.	.	.
!LO:SIC:v:s=8AJ	!	!	!	!	!	!	!	!	!	!	!	!	!	!	!	!
8B\J	.	16cc#\	.	16dd\	.	8c#\J	.	.	.	.	.	.	.	.	.	.
.	.	16cc#\JJ	.	16d/JJ	.	.	.	.	.	.	.	.	.	.	.	.
=207	=207	=207	=207	=207	=207	=207	=207	=207	=207	=207	=207	=207	=207	=207	=207	=207
!	!	!	!	!LO:TX:a:t=P:problem=mixed beam	!	!	!	!	!LO:MO:mod=2dd[	!	!	!	!	!	!	!
8G\L	.	16b\LL	.	16dd\LL	.	8B\L	.	-lei-	2dd\	-lei-	-lei-	4dd\	.	4ff#\	2ryy	2ryy
.	.	16b\	.	16d/	.	.	.	.	.	.	.	.	.	.	.	.
8B\	.	16dd\	.	16dd\	.	8d\	.	.	.	.	.	.	.	.	.	.
.	.	16dd\JJ	.	16d/JJ	.	.	.	.	.	.	.	.	.	.	.	.
!LO:SIC:v:s=8G	!	!	!	!LO:TX:a:t=P:problem=mixed beam	!	!	!	!	!	!	!	!	!	!	!	!
8A\	.	16b\LL	.	16dd\LL	.	8B\	.	.	.	.	.	4r	.	4r	.	.
.	.	16b\	.	16d/	.	.	.	.	.	.	.	.	.	.	.	.
!LO:SIC:v:s=8F#J	!	!	!	!	!	!	!	!	!	!	!	!	!	!	!	!
8G\J	.	16a\	.	16dd\	.	8A\J	.	.	.	.	.	.	.	.	.	.
.	.	16a\JJ	.	16d/JJ	.	.	.	.	.	.	.	.	.	.	.	.
=208	=208	=208	=208	=208	=208	=208	=208	=208	=208	=208	=208	=208	=208	=208	=208	=208
!	!	!	!	!LO:TX:a:t=P:problem=mixed beam	!	!	!	!	!LO:MO:mod=2dd]	!	!	!LO:SIC:v:s=4ee	!	!LO:SIC:v:s=4ee	!	!
8E\L	.	16g/LL	.	16dd\LL	.	8G\L	.	.	2dd\	-son	.	4dd\	.	4ff#\	2ryy	2ryy
.	.	16g/	.	16d/	.	.	.	.	.	.	.	.	.	.	.	.
8G\	.	16b/	.	16dd\	.	8B\	.	.	.	.	.	.	.	.	.	.
.	.	16b/JJ	.	16d/JJ	.	.	.	.	.	.	.	.	.	.	.	.
!	!	!	!	!LO:TX:a:t=P:problem=mixed beam	!	!	!	!	!	!	!	!	!	!	!	!
8E\	.	16g/LL	.	16dd\LL	.	8G\	.	.	.	.	.	4r	.	4r	.	.
.	.	16g/	.	16d/	.	.	.	.	.	.	.	.	.	.	.	.
8D\J	.	16f#/	.	16dd\	.	8F#\J	.	.	.	.	.	.	.	.	.	.
.	.	16f#/JJ	.	16d/JJ	.	.	.	.	.	.	.	.	.	.	.	.
=209	=209	=209	=209	=209	=209	=209	=209	=209	=209	=209	=209	=209	=209	=209	=209	=209
4A\	.	4cc#\	.	4ee\	.	4c#\	son	son	4ee\	.	-son	4a/	.	4ee\	2ryy	2ryy
4D\	.	4dd\	.	4ff#\	.	4d\	e-	e-	4ff#\	e-	e-	4dd\	.	4ff#\	.	.
=210	=210	=210	=210	=210	=210	=210	=210	=210	=210	=210	=210	=210	=210	=210	=210	=210
4A\	.	4cc#\	.	4ee\	.	2c#\	-lei-	-lei-	2ee\	-lei-	-lei-	4a/	.	4ee\	2ryy	2ryy
4AA/	.	4cc#\	.	4ee\	.	.	.	.	.	.	.	4a/	.	4ee\	.	.
!	!	!	!	!	!	!LO:LB:g=original	!	!	!LO:LB:g=original	!	!	!	!	!	!	!
=211	=211	=211	=211	=211	=211	=211	=211	=211	=211	=211	=211	=211	=211	=211	=211	=211
2D\	.	2dd\	.	2ff#\	.	2d\	-son	-son	2ff#\	-son	-son	2dd\	.	2ff#\	2ryy	2ryy
.	.	.	.	.	.	.	.	.	.	.	.	.	.	.	.	.
=212	=212	=212	=212	=212	=212	=212	=212	=212	=212	=212	=212	=212	=212	=212	=212	=212
2A\	.	4r	.	4r	.	2c#\	e-	e-	2ee\	e-	e-	4r	.	4r	2ryy	2ryy
.	.	4cc#\	.	4ee\	.	.	.	.	.	.	.	4a/	.	4ee\	.	.
=213	=213	=213	=213	=213	=213	=213	=213	=213	=213	=213	=213	=213	=213	=213	=213	=213
2d\	.	4r	.	4r	.	2d\	-lei-	-lei-	2ff#\	-lei-	-lei-	4r	.	4r	2ryy	2ryy
!	!	!	!	!	!	!	!	!	!	!	!	!	!	!	!	!
.	.	4dd\	.	4ff#\	.	.	.	.	.	.	.	4dd\	.	4ff#\	.	.
!	!	!	!	!	!	!	!	!	!	!	!	!LO:LB:g=original	!	!	!	!
=214	=214	=214	=214	=214	=214	=214	=214	=214	=214	=214	=214	=214	=214	=214	=214	=214
2A\	.	4r	.	4r	.	2c#\	.	.	2ee\	.	.	4r	.	4r	2ryy	2ryy
.	.	4cc#\	.	4ee\	.	.	.	.	.	.	.	4a/	.	4ee\	.	.
=215	=215	=215	=215	=215	=215	=215	=215	=215	=215	=215	=215	=215	=215	=215	=215	=215
!LO:TX:b:i:t= Verte Gloria:mod=	!	!	!	!	!	!	!	!	!	!	!	!	!	!	!	!
2D\	.	4dd\	.	4ff# 4a 4d/	.	2d\	-son	-son	2ff#\	-son	-son	2dd\	.	2ff#\	2ryy	2ryy
.	.	4r	.	4r	.	.	.	.	.	.	.	.	.	.	.	.
==	==	==	==	==	==	==	==	==	==	==	==	==	==	==	==	==
*-	*-	*-	*-	*-	*-	*-	*-	*-	*-	*-	*-	*-	*-	*-	*-	*-
!!!system-decoration: [(s1,s2)][(s3,s4)][(s5,s6)][(s7,s8)]s9
!!!RDF**kern: @ = marked note, color=grey
!!!ENC: Tomasz Grochalski
!!!END: 2020-05-19
!!!EED: Antoni Szymański
!!!EEV: 2020-10-03
!!!EED-review: Andrzej Borzym
!!!EEV-review: 2025-03-14
!!!ENC-modern: Andrzej Borzym
!!!END-modern: 2025-03-14
